(VECTRIC POST REV.)
(4AC7A5FFD0F6DEDC3B51B569B338FFCA)
T1M6
G17
G0Z20.320
G0X0.000Y0.000S18000M3
G0X16.809Y27.060Z5.080
G1Z0.000F400.0
G1X15.809Y28.060Z-0.707
G1X15.709Y28.164Z-0.781
G1X15.614Y28.274Z-0.854
G1X15.524Y28.389Z-0.928
G1X15.439Y28.509Z-1.002
G1X15.359Y28.634Z-1.075
G1X15.286Y28.763Z-1.149
G1X15.219Y28.896Z-1.223
G1X15.158Y29.033Z-1.296
G1X15.105Y29.172Z-1.370
G1X15.058Y29.313Z-1.443
G1X15.019Y29.457Z-1.517
G1X14.986Y29.601Z-1.591
G1X14.962Y29.746Z-1.664
G1X14.944Y29.892Z-1.738
G1X14.933Y30.037Z-1.812
G1X14.930Y30.181Z-1.885
G1Y38.910Z-6.250
G1Y51.410F1200.0
Y89.181
X14.933Y89.469
X14.943Y89.760
X14.959Y90.054
X14.983Y90.349
X15.013Y90.646
X15.050Y90.945
X15.095Y91.245
X15.147Y91.546
X15.207Y91.849
X15.274Y92.151
X15.349Y92.455
X15.432Y92.758
X15.523Y93.061
X15.621Y93.364
X15.728Y93.665
X15.843Y93.966
X15.966Y94.265
X16.096Y94.563
X16.235Y94.858
X16.382Y95.152
X16.537Y95.442
X16.700Y95.730
X16.871Y96.014
X17.049Y96.295
X17.235Y96.571
X17.428Y96.844
X17.629Y97.112
X17.837Y97.375
X18.052Y97.633
X18.274Y97.885
X18.503Y98.132
X18.738Y98.373
X18.979Y98.608
X19.226Y98.837
X19.478Y99.058
X19.736Y99.273
X19.999Y99.481
X20.267Y99.682
X20.540Y99.876
X20.816Y100.062
X21.097Y100.240
X21.381Y100.411
X21.669Y100.574
X21.959Y100.729
X22.252Y100.875
X22.548Y101.014
X22.845Y101.145
X23.145Y101.268
X23.445Y101.383
X23.747Y101.490
X24.050Y101.588
X24.353Y101.679
X24.656Y101.762
X24.959Y101.837
X25.262Y101.904
X25.564Y101.964
X25.866Y102.016
X26.166Y102.061
X26.465Y102.098
X26.762Y102.128
X27.057Y102.152
X27.350Y102.168
X27.641Y102.178
X27.930Y102.181
X38.753
X56.753
X331.711
X349.711
X381.930
X382.219Y102.178
X382.509Y102.168
X382.803Y102.152
X383.098Y102.128
X383.395Y102.098
X383.694Y102.061
X383.994Y102.016
X384.295Y101.964
X384.598Y101.904
X384.901Y101.837
X385.204Y101.762
X385.507Y101.679
X385.810Y101.588
X386.113Y101.490
X386.414Y101.383
X386.715Y101.268
X387.014Y101.145
X387.312Y101.014
X387.608Y100.875
X387.901Y100.729
X388.191Y100.574
X388.479Y100.411
X388.763Y100.240
X389.044Y100.062
X389.320Y99.876
X389.593Y99.682
X389.861Y99.481
X390.124Y99.273
X390.382Y99.058
X390.634Y98.837
X390.881Y98.608
X391.122Y98.373
X391.357Y98.132
X391.586Y97.885
X391.807Y97.633
X392.023Y97.375
X392.231Y97.112
X392.431Y96.844
X392.625Y96.571
X392.811Y96.295
X392.989Y96.014
X393.160Y95.730
X393.323Y95.442
X393.478Y95.152
X393.625Y94.858
X393.763Y94.563
X393.894Y94.265
X394.017Y93.966
X394.132Y93.665
X394.239Y93.364
X394.337Y93.061
X394.428Y92.758
X394.511Y92.455
X394.586Y92.151
X394.653Y91.849
X394.713Y91.546
X394.765Y91.245
X394.810Y90.945
X394.847Y90.646
X394.877Y90.349
X394.901Y90.054
X394.917Y89.760
X394.927Y89.469
X394.930Y89.181
Y30.181
X394.926Y30.037
X394.916Y29.892
X394.898Y29.746
X394.873Y29.601
X394.841Y29.457
X394.802Y29.313
X394.755Y29.172
X394.702Y29.033
X394.641Y28.896
X394.574Y28.763
X394.501Y28.634
X394.421Y28.509
X394.336Y28.389
X394.246Y28.274
X394.151Y28.164
X394.051Y28.060
X393.051Y27.060
X392.947Y26.960
X392.837Y26.865
X392.722Y26.775
X392.601Y26.690
X392.477Y26.610
X392.347Y26.537
X392.214Y26.470
X392.078Y26.409
X391.939Y26.356
X391.797Y26.309
X391.654Y26.270
X391.510Y26.237
X391.364Y26.212
X391.219Y26.195
X391.074Y26.184
X390.930Y26.181
X381.930
X381.786Y26.184
X381.641Y26.195
X381.495Y26.212
X381.350Y26.237
X381.206Y26.270
X381.063Y26.309
X380.921Y26.356
X380.782Y26.409
X380.646Y26.470
X380.513Y26.537
X380.383Y26.610
X380.258Y26.690
X380.138Y26.775
X380.023Y26.865
X379.913Y26.960
X379.809Y27.060
X377.809Y29.060
X377.709Y29.164
X377.614Y29.274
X377.524Y29.389
X377.439Y29.509
X377.359Y29.634
X377.286Y29.763
X377.219Y29.896
X377.158Y30.033
X377.105Y30.172
X377.058Y30.313
X377.019Y30.457
X376.986Y30.601
X376.962Y30.746
X376.944Y30.892
X376.933Y31.037
X376.930Y31.181
Y64.181
X376.927Y64.043
X376.917Y63.902
X376.900Y63.760
X376.876Y63.617
X376.845Y63.473
X376.806Y63.328
X376.760Y63.184
X376.705Y63.041
X376.642Y62.899
X376.572Y62.760
X376.494Y62.623
X376.408Y62.490
X376.315Y62.361
X376.214Y62.236
X376.107Y62.117
X375.994Y62.004
X375.875Y61.897
X375.750Y61.796
X375.621Y61.703
X375.488Y61.617
X375.351Y61.539
X375.212Y61.468
X375.070Y61.406
X374.927Y61.351
X374.783Y61.305
X374.638Y61.266
X374.494Y61.234
X374.350Y61.210
X374.208Y61.194
X374.068Y61.184
X373.930Y61.181
X367.930
X368.068Y61.178
X368.208Y61.168
X368.350Y61.151
X368.494Y61.127
X368.638Y61.096
X368.783Y61.057
X368.927Y61.010
X369.070Y60.956
X369.212Y60.893
X369.351Y60.823
X369.488Y60.745
X369.621Y60.659
X369.750Y60.566
X369.875Y60.465
X369.994Y60.358
X370.107Y60.245
X370.214Y60.126
X370.315Y60.001
X370.408Y59.872
X370.494Y59.739
X370.572Y59.602
X370.642Y59.463
X370.705Y59.321
X370.760Y59.178
X370.806Y59.033
X370.845Y58.889
X370.876Y58.745
X370.900Y58.601
X370.917Y58.459
X370.927Y58.319
X370.930Y58.181
Y31.181
X370.926Y31.037
X370.916Y30.892
X370.898Y30.746
X370.873Y30.601
X370.841Y30.457
X370.802Y30.313
X370.755Y30.172
X370.702Y30.033
X370.641Y29.896
X370.574Y29.763
X370.501Y29.634
X370.421Y29.509
X370.336Y29.389
X370.246Y29.274
X370.151Y29.164
X370.051Y29.060
X368.051Y27.060
X367.947Y26.960
X367.837Y26.865
X367.722Y26.775
X367.601Y26.690
X367.477Y26.610
X367.347Y26.537
X367.214Y26.470
X367.078Y26.409
X366.939Y26.356
X366.797Y26.309
X366.654Y26.270
X366.510Y26.237
X366.364Y26.212
X366.219Y26.195
X366.074Y26.184
X365.930Y26.181
X343.911
X343.761Y26.185
X343.610Y26.196
X343.458Y26.215
X343.307Y26.242
X343.157Y26.277
X343.008Y26.320
X342.862Y26.370
X342.718Y26.428
X342.577Y26.494
X342.440Y26.566
X342.308Y26.645
X342.180Y26.730
X342.058Y26.821
X341.941Y26.918
X341.831Y27.019
X340.831Y27.981
X340.726Y28.087
X340.625Y28.200
X340.529Y28.319
X340.439Y28.443
X340.355Y28.573
X340.277Y28.707
X340.207Y28.844
X340.143Y28.986
X340.087Y29.131
X340.039Y29.277
X339.998Y29.426
X339.965Y29.576
X339.940Y29.727
X339.923Y29.877
X339.914Y30.027
X339.896Y30.405
X339.871Y30.784
X339.840Y31.166
X339.802Y31.550
X339.757Y31.935
X339.705Y32.322
X339.645Y32.710
X339.578Y33.100
X339.504Y33.490
X339.422Y33.882
X339.332Y34.273
X339.235Y34.666
X339.130Y35.058
X339.018Y35.451
X338.897Y35.843
X338.768Y36.235
X338.632Y36.626
X338.487Y37.016
X338.335Y37.405
X338.174Y37.792
X338.006Y38.178
X337.829Y38.562
X337.645Y38.944
X337.452Y39.324
X337.252Y39.701
X337.043Y40.075
X336.827Y40.446
X336.603Y40.814
X336.371Y41.178
X336.132Y41.538
X335.885Y41.894
X335.630Y42.246
X335.368Y42.594
X335.099Y42.936
X334.823Y43.274
X334.540Y43.607
X334.250Y43.934
X333.954Y44.255
X333.651Y44.571
X333.341Y44.881
X333.026Y45.185
X332.704Y45.482
X332.377Y45.772
X332.044Y46.056
X331.706Y46.333
X331.363Y46.604
X331.015Y46.866
X330.662Y47.122
X330.305Y47.370
X329.943Y47.611
X329.578Y47.844
X329.209Y48.070
X328.836Y48.287
X328.460Y48.497
X328.081Y48.699
X327.699Y48.893
X327.315Y49.079
X326.928Y49.257
X326.539Y49.426
X326.149Y49.588
X325.757Y49.742
X325.363Y49.887
X324.969Y50.025
X324.573Y50.154
X324.177Y50.275
X323.781Y50.389
X323.384Y50.494
X322.988Y50.592
X322.591Y50.681
X322.196Y50.763
X321.801Y50.838
X321.406Y50.904
X321.013Y50.964
X320.622Y51.016
X320.231Y51.060
X319.843Y51.098
X319.456Y51.128
X319.071Y51.151
X318.688Y51.168
X318.308Y51.178
X317.930Y51.181
X311.242
X293.242
X118.896
X100.896
X91.930
X91.552Y51.178
X91.172Y51.168
X90.789Y51.151
X90.404Y51.128
X90.017Y51.098
X89.629Y51.060
X89.238Y51.016
X88.847Y50.964
X88.453Y50.904
X88.059Y50.838
X87.664Y50.763
X87.269Y50.681
X86.872Y50.592
X86.476Y50.494
X86.079Y50.389
X85.683Y50.275
X85.287Y50.154
X84.891Y50.025
X84.497Y49.887
X84.103Y49.742
X83.711Y49.588
X83.321Y49.426
X82.932Y49.257
X82.545Y49.079
X82.161Y48.893
X81.779Y48.699
X81.400Y48.497
X81.024Y48.287
X80.651Y48.070
X80.282Y47.844
X79.916Y47.611
X79.555Y47.370
X79.198Y47.122
X78.845Y46.866
X78.497Y46.604
X78.154Y46.333
X77.815Y46.056
X77.483Y45.772
X77.156Y45.482
X76.834Y45.185
X76.519Y44.881
X76.209Y44.571
X75.906Y44.255
X75.610Y43.934
X75.320Y43.607
X75.037Y43.274
X74.761Y42.936
X74.492Y42.594
X74.230Y42.246
X73.975Y41.894
X73.728Y41.538
X73.489Y41.178
X73.257Y40.814
X73.033Y40.446
X72.817Y40.075
X72.608Y39.701
X72.408Y39.324
X72.215Y38.944
X72.031Y38.562
X71.854Y38.178
X71.685Y37.792
X71.525Y37.405
X71.372Y37.016
X71.228Y36.626
X71.091Y36.235
X70.963Y35.843
X70.842Y35.451
X70.730Y35.058
X70.625Y34.666
X70.527Y34.273
X70.438Y33.882
X70.356Y33.490
X70.282Y33.100
X70.215Y32.710
X70.155Y32.322
X70.103Y31.935
X70.058Y31.550
X70.020Y31.166
X69.988Y30.784
X69.964Y30.405
X69.946Y30.027
X69.937Y29.877
X69.919Y29.727
X69.895Y29.576
X69.862Y29.426
X69.821Y29.277
X69.773Y29.131
X69.717Y28.986
X69.653Y28.844
X69.583Y28.707
X69.505Y28.573
X69.421Y28.443
X69.331Y28.319
X69.235Y28.200
X69.134Y28.087
X69.029Y27.981
X68.029Y27.019
X67.919Y26.918
X67.802Y26.821
X67.679Y26.730
X67.552Y26.645
X67.419Y26.566
X67.283Y26.494
X67.142Y26.428
X66.998Y26.370
X66.852Y26.320
X66.703Y26.277
X66.553Y26.242
X66.402Y26.215
X66.250Y26.196
X66.099Y26.185
X65.949Y26.181
X43.930
X43.786Y26.184
X43.641Y26.195
X43.495Y26.212
X43.350Y26.237
X43.206Y26.270
X43.063Y26.309
X42.921Y26.356
X42.782Y26.409
X42.646Y26.470
X42.513Y26.537
X42.383Y26.610
X42.258Y26.690
X42.138Y26.775
X42.023Y26.865
X41.913Y26.960
X41.809Y27.060
X39.809Y29.060
X39.709Y29.164
X39.614Y29.274
X39.524Y29.389
X39.439Y29.509
X39.359Y29.634
X39.286Y29.763
X39.219Y29.896
X39.158Y30.033
X39.105Y30.172
X39.058Y30.313
X39.019Y30.457
X38.986Y30.601
X38.962Y30.746
X38.944Y30.892
X38.933Y31.037
X38.930Y31.181
Y58.181
X38.933Y58.319
X38.943Y58.459
X38.960Y58.601
X38.983Y58.745
X39.015Y58.889
X39.054Y59.033
X39.100Y59.178
X39.155Y59.321
X39.218Y59.463
X39.288Y59.602
X39.366Y59.739
X39.452Y59.872
X39.545Y60.001
X39.646Y60.126
X39.753Y60.245
X39.866Y60.358
X39.985Y60.465
X40.110Y60.566
X40.239Y60.659
X40.372Y60.745
X40.509Y60.823
X40.648Y60.893
X40.790Y60.956
X40.933Y61.010
X41.077Y61.057
X41.222Y61.096
X41.366Y61.127
X41.509Y61.151
X41.652Y61.168
X41.792Y61.178
X41.930Y61.181
X35.930
X35.792Y61.184
X35.652Y61.194
X35.509Y61.210
X35.366Y61.234
X35.222Y61.266
X35.077Y61.305
X34.933Y61.351
X34.790Y61.406
X34.648Y61.468
X34.509Y61.539
X34.372Y61.617
X34.239Y61.703
X34.110Y61.796
X33.985Y61.897
X33.866Y62.004
X33.753Y62.117
X33.646Y62.236
X33.545Y62.361
X33.452Y62.490
X33.366Y62.623
X33.288Y62.760
X33.218Y62.899
X33.155Y63.041
X33.100Y63.184
X33.054Y63.328
X33.015Y63.473
X32.983Y63.617
X32.960Y63.760
X32.943Y63.902
X32.933Y64.043
X32.930Y64.181
Y31.181
X32.926Y31.037
X32.916Y30.892
X32.898Y30.746
X32.873Y30.601
X32.841Y30.457
X32.802Y30.313
X32.755Y30.172
X32.702Y30.033
X32.641Y29.896
X32.574Y29.763
X32.501Y29.634
X32.421Y29.509
X32.336Y29.389
X32.246Y29.274
X32.151Y29.164
X32.051Y29.060
X30.051Y27.060
X29.947Y26.960
X29.837Y26.865
X29.722Y26.775
X29.601Y26.690
X29.476Y26.610
X29.347Y26.537
X29.214Y26.470
X29.078Y26.409
X28.939Y26.356
X28.797Y26.309
X28.654Y26.270
X28.510Y26.237
X28.364Y26.212
X28.219Y26.195
X28.074Y26.184
X27.930Y26.181
X18.930
X18.786Y26.184
X18.641Y26.195
X18.495Y26.212
X18.350Y26.237
X18.206Y26.270
X18.063Y26.309
X17.921Y26.356
X17.782Y26.409
X17.646Y26.470
X17.513Y26.537
X17.383Y26.610
X17.258Y26.690
X17.138Y26.775
X17.023Y26.865
X16.913Y26.960
X16.809Y27.060
X15.809Y28.060
X15.709Y28.164
X15.614Y28.274
X15.524Y28.389
X15.439Y28.509
X15.359Y28.634
X15.286Y28.763
X15.219Y28.896
X15.158Y29.033
X15.105Y29.172
X15.058Y29.313
X15.019Y29.457
X14.986Y29.601
X14.962Y29.746
X14.944Y29.892
X14.933Y30.037
X14.930Y30.181
Y38.910
G1Y51.410Z-12.500F400.0
G1Y89.181F1200.0
X14.933Y89.469
X14.943Y89.760
X14.959Y90.054
X14.983Y90.349
X15.013Y90.646
X15.050Y90.945
X15.095Y91.245
X15.147Y91.546
X15.207Y91.849
X15.274Y92.151
X15.349Y92.455
X15.432Y92.758
X15.523Y93.061
X15.621Y93.364
X15.728Y93.665
X15.843Y93.966
X15.966Y94.265
X16.096Y94.563
X16.235Y94.858
X16.382Y95.152
X16.537Y95.442
X16.700Y95.730
X16.871Y96.014
X17.049Y96.295
X17.235Y96.571
X17.428Y96.844
X17.629Y97.112
X17.837Y97.375
X18.052Y97.633
X18.274Y97.885
X18.503Y98.132
X18.738Y98.373
X18.979Y98.608
X19.226Y98.837
X19.478Y99.058
X19.736Y99.273
X19.999Y99.481
X20.267Y99.682
X20.540Y99.876
X20.816Y100.062
X21.097Y100.240
X21.381Y100.411
X21.669Y100.574
X21.959Y100.729
X22.252Y100.875
X22.548Y101.014
X22.845Y101.145
X23.145Y101.268
X23.445Y101.383
X23.747Y101.490
X24.050Y101.588
X24.353Y101.679
X24.656Y101.762
X24.959Y101.837
X25.262Y101.904
X25.564Y101.964
X25.866Y102.016
X26.166Y102.061
X26.465Y102.098
X26.762Y102.128
X27.057Y102.152
X27.350Y102.168
X27.641Y102.178
X27.930Y102.181
X38.753
Z-10.000
X56.753
G1Z-12.500F400.0
G1X331.711F1200.0
Z-10.000
X349.711
G1Z-12.500F400.0
G1X381.930F1200.0
X382.219Y102.178
X382.509Y102.168
X382.803Y102.152
X383.098Y102.128
X383.395Y102.098
X383.694Y102.061
X383.994Y102.016
X384.295Y101.964
X384.598Y101.904
X384.901Y101.837
X385.204Y101.762
X385.507Y101.679
X385.810Y101.588
X386.113Y101.490
X386.414Y101.383
X386.715Y101.268
X387.014Y101.145
X387.312Y101.014
X387.608Y100.875
X387.901Y100.729
X388.191Y100.574
X388.479Y100.411
X388.763Y100.240
X389.044Y100.062
X389.320Y99.876
X389.593Y99.682
X389.861Y99.481
X390.124Y99.273
X390.382Y99.058
X390.634Y98.837
X390.881Y98.608
X391.122Y98.373
X391.357Y98.132
X391.586Y97.885
X391.807Y97.633
X392.023Y97.375
X392.231Y97.112
X392.431Y96.844
X392.625Y96.571
X392.811Y96.295
X392.989Y96.014
X393.160Y95.730
X393.323Y95.442
X393.478Y95.152
X393.625Y94.858
X393.763Y94.563
X393.894Y94.265
X394.017Y93.966
X394.132Y93.665
X394.239Y93.364
X394.337Y93.061
X394.428Y92.758
X394.511Y92.455
X394.586Y92.151
X394.653Y91.849
X394.713Y91.546
X394.765Y91.245
X394.810Y90.945
X394.847Y90.646
X394.877Y90.349
X394.901Y90.054
X394.917Y89.760
X394.927Y89.469
X394.930Y89.181
Y30.181
X394.926Y30.037
X394.916Y29.892
X394.898Y29.746
X394.873Y29.601
X394.841Y29.457
X394.802Y29.313
X394.755Y29.172
X394.702Y29.033
X394.641Y28.896
X394.574Y28.763
X394.501Y28.634
X394.421Y28.509
X394.336Y28.389
X394.246Y28.274
X394.151Y28.164
X394.051Y28.060
X393.051Y27.060
X392.947Y26.960
X392.837Y26.865
X392.722Y26.775
X392.601Y26.690
X392.477Y26.610
X392.347Y26.537
X392.214Y26.470
X392.078Y26.409
X391.939Y26.356
X391.797Y26.309
X391.654Y26.270
X391.510Y26.237
X391.364Y26.212
X391.219Y26.195
X391.074Y26.184
X390.930Y26.181
X381.930
X381.786Y26.184
X381.641Y26.195
X381.495Y26.212
X381.350Y26.237
X381.206Y26.270
X381.063Y26.309
X380.921Y26.356
X380.782Y26.409
X380.646Y26.470
X380.513Y26.537
X380.383Y26.610
X380.258Y26.690
X380.138Y26.775
X380.023Y26.865
X379.913Y26.960
X379.809Y27.060
X377.809Y29.060
X377.709Y29.164
X377.614Y29.274
X377.524Y29.389
X377.439Y29.509
X377.359Y29.634
X377.286Y29.763
X377.219Y29.896
X377.158Y30.033
X377.105Y30.172
X377.058Y30.313
X377.019Y30.457
X376.986Y30.601
X376.962Y30.746
X376.944Y30.892
X376.933Y31.037
X376.930Y31.181
Y64.181
X376.927Y64.043
X376.917Y63.902
X376.900Y63.760
X376.876Y63.617
X376.845Y63.473
X376.806Y63.328
X376.760Y63.184
X376.705Y63.041
X376.642Y62.899
X376.572Y62.760
X376.494Y62.623
X376.408Y62.490
X376.315Y62.361
X376.214Y62.236
X376.107Y62.117
X375.994Y62.004
X375.875Y61.897
X375.750Y61.796
X375.621Y61.703
X375.488Y61.617
X375.351Y61.539
X375.212Y61.468
X375.070Y61.406
X374.927Y61.351
X374.783Y61.305
X374.638Y61.266
X374.494Y61.234
X374.350Y61.210
X374.208Y61.194
X374.068Y61.184
X373.930Y61.181
X367.930
X368.068Y61.178
X368.208Y61.168
X368.350Y61.151
X368.494Y61.127
X368.638Y61.096
X368.783Y61.057
X368.927Y61.010
X369.070Y60.956
X369.212Y60.893
X369.351Y60.823
X369.488Y60.745
X369.621Y60.659
X369.750Y60.566
X369.875Y60.465
X369.994Y60.358
X370.107Y60.245
X370.214Y60.126
X370.315Y60.001
X370.408Y59.872
X370.494Y59.739
X370.572Y59.602
X370.642Y59.463
X370.705Y59.321
X370.760Y59.178
X370.806Y59.033
X370.845Y58.889
X370.876Y58.745
X370.900Y58.601
X370.917Y58.459
X370.927Y58.319
X370.930Y58.181
Y31.181
X370.926Y31.037
X370.916Y30.892
X370.898Y30.746
X370.873Y30.601
X370.841Y30.457
X370.802Y30.313
X370.755Y30.172
X370.702Y30.033
X370.641Y29.896
X370.574Y29.763
X370.501Y29.634
X370.421Y29.509
X370.336Y29.389
X370.246Y29.274
X370.151Y29.164
X370.051Y29.060
X368.051Y27.060
X367.947Y26.960
X367.837Y26.865
X367.722Y26.775
X367.601Y26.690
X367.477Y26.610
X367.347Y26.537
X367.214Y26.470
X367.078Y26.409
X366.939Y26.356
X366.797Y26.309
X366.654Y26.270
X366.510Y26.237
X366.364Y26.212
X366.219Y26.195
X366.074Y26.184
X365.930Y26.181
X343.911
X343.761Y26.185
X343.610Y26.196
X343.458Y26.215
X343.307Y26.242
X343.157Y26.277
X343.008Y26.320
X342.862Y26.370
X342.718Y26.428
X342.577Y26.494
X342.440Y26.566
X342.308Y26.645
X342.180Y26.730
X342.058Y26.821
X341.941Y26.918
X341.831Y27.019
X340.831Y27.981
X340.726Y28.087
X340.625Y28.200
X340.529Y28.319
X340.439Y28.443
X340.355Y28.573
X340.277Y28.707
X340.207Y28.844
X340.143Y28.986
X340.087Y29.131
X340.039Y29.277
X339.998Y29.426
X339.965Y29.576
X339.940Y29.727
X339.923Y29.877
X339.914Y30.027
X339.896Y30.405
X339.871Y30.784
X339.840Y31.166
X339.802Y31.550
X339.757Y31.935
X339.705Y32.322
X339.645Y32.710
X339.578Y33.100
X339.504Y33.490
X339.422Y33.882
X339.332Y34.273
X339.235Y34.666
X339.130Y35.058
X339.018Y35.451
X338.897Y35.843
X338.768Y36.235
X338.632Y36.626
X338.487Y37.016
X338.335Y37.405
X338.174Y37.792
X338.006Y38.178
X337.829Y38.562
X337.645Y38.944
X337.452Y39.324
X337.252Y39.701
X337.043Y40.075
X336.827Y40.446
X336.603Y40.814
X336.371Y41.178
X336.132Y41.538
X335.885Y41.894
X335.630Y42.246
X335.368Y42.594
X335.099Y42.936
X334.823Y43.274
X334.540Y43.607
X334.250Y43.934
X333.954Y44.255
X333.651Y44.571
X333.341Y44.881
X333.026Y45.185
X332.704Y45.482
X332.377Y45.772
X332.044Y46.056
X331.706Y46.333
X331.363Y46.604
X331.015Y46.866
X330.662Y47.122
X330.305Y47.370
X329.943Y47.611
X329.578Y47.844
X329.209Y48.070
X328.836Y48.287
X328.460Y48.497
X328.081Y48.699
X327.699Y48.893
X327.315Y49.079
X326.928Y49.257
X326.539Y49.426
X326.149Y49.588
X325.757Y49.742
X325.363Y49.887
X324.969Y50.025
X324.573Y50.154
X324.177Y50.275
X323.781Y50.389
X323.384Y50.494
X322.988Y50.592
X322.591Y50.681
X322.196Y50.763
X321.801Y50.838
X321.406Y50.904
X321.013Y50.964
X320.622Y51.016
X320.231Y51.060
X319.843Y51.098
X319.456Y51.128
X319.071Y51.151
X318.688Y51.168
X318.308Y51.178
X317.930Y51.181
X311.242
Z-10.000
X293.242
G1Z-12.500F400.0
G1X118.896F1200.0
Z-10.000
X100.896
G1Z-12.500F400.0
G1X91.930F1200.0
X91.552Y51.178
X91.172Y51.168
X90.789Y51.151
X90.404Y51.128
X90.017Y51.098
X89.629Y51.060
X89.238Y51.016
X88.847Y50.964
X88.453Y50.904
X88.059Y50.838
X87.664Y50.763
X87.269Y50.681
X86.872Y50.592
X86.476Y50.494
X86.079Y50.389
X85.683Y50.275
X85.287Y50.154
X84.891Y50.025
X84.497Y49.887
X84.103Y49.742
X83.711Y49.588
X83.321Y49.426
X82.932Y49.257
X82.545Y49.079
X82.161Y48.893
X81.779Y48.699
X81.400Y48.497
X81.024Y48.287
X80.651Y48.070
X80.282Y47.844
X79.916Y47.611
X79.555Y47.370
X79.198Y47.122
X78.845Y46.866
X78.497Y46.604
X78.154Y46.333
X77.815Y46.056
X77.483Y45.772
X77.156Y45.482
X76.834Y45.185
X76.519Y44.881
X76.209Y44.571
X75.906Y44.255
X75.610Y43.934
X75.320Y43.607
X75.037Y43.274
X74.761Y42.936
X74.492Y42.594
X74.230Y42.246
X73.975Y41.894
X73.728Y41.538
X73.489Y41.178
X73.257Y40.814
X73.033Y40.446
X72.817Y40.075
X72.608Y39.701
X72.408Y39.324
X72.215Y38.944
X72.031Y38.562
X71.854Y38.178
X71.685Y37.792
X71.525Y37.405
X71.372Y37.016
X71.228Y36.626
X71.091Y36.235
X70.963Y35.843
X70.842Y35.451
X70.730Y35.058
X70.625Y34.666
X70.527Y34.273
X70.438Y33.882
X70.356Y33.490
X70.282Y33.100
X70.215Y32.710
X70.155Y32.322
X70.103Y31.935
X70.058Y31.550
X70.020Y31.166
X69.988Y30.784
X69.964Y30.405
X69.946Y30.027
X69.937Y29.877
X69.919Y29.727
X69.895Y29.576
X69.862Y29.426
X69.821Y29.277
X69.773Y29.131
X69.717Y28.986
X69.653Y28.844
X69.583Y28.707
X69.505Y28.573
X69.421Y28.443
X69.331Y28.319
X69.235Y28.200
X69.134Y28.087
X69.029Y27.981
X68.029Y27.019
X67.919Y26.918
X67.802Y26.821
X67.679Y26.730
X67.552Y26.645
X67.419Y26.566
X67.283Y26.494
X67.142Y26.428
X66.998Y26.370
X66.852Y26.320
X66.703Y26.277
X66.553Y26.242
X66.402Y26.215
X66.250Y26.196
X66.099Y26.185
X65.949Y26.181
X43.930
X43.786Y26.184
X43.641Y26.195
X43.495Y26.212
X43.350Y26.237
X43.206Y26.270
X43.063Y26.309
X42.921Y26.356
X42.782Y26.409
X42.646Y26.470
X42.513Y26.537
X42.383Y26.610
X42.258Y26.690
X42.138Y26.775
X42.023Y26.865
X41.913Y26.960
X41.809Y27.060
X39.809Y29.060
X39.709Y29.164
X39.614Y29.274
X39.524Y29.389
X39.439Y29.509
X39.359Y29.634
X39.286Y29.763
X39.219Y29.896
X39.158Y30.033
X39.105Y30.172
X39.058Y30.313
X39.019Y30.457
X38.986Y30.601
X38.962Y30.746
X38.944Y30.892
X38.933Y31.037
X38.930Y31.181
Y58.181
X38.933Y58.319
X38.943Y58.459
X38.960Y58.601
X38.983Y58.745
X39.015Y58.889
X39.054Y59.033
X39.100Y59.178
X39.155Y59.321
X39.218Y59.463
X39.288Y59.602
X39.366Y59.739
X39.452Y59.872
X39.545Y60.001
X39.646Y60.126
X39.753Y60.245
X39.866Y60.358
X39.985Y60.465
X40.110Y60.566
X40.239Y60.659
X40.372Y60.745
X40.509Y60.823
X40.648Y60.893
X40.790Y60.956
X40.933Y61.010
X41.077Y61.057
X41.222Y61.096
X41.366Y61.127
X41.509Y61.151
X41.652Y61.168
X41.792Y61.178
X41.930Y61.181
X35.930
X35.792Y61.184
X35.652Y61.194
X35.509Y61.210
X35.366Y61.234
X35.222Y61.266
X35.077Y61.305
X34.933Y61.351
X34.790Y61.406
X34.648Y61.468
X34.509Y61.539
X34.372Y61.617
X34.239Y61.703
X34.110Y61.796
X33.985Y61.897
X33.866Y62.004
X33.753Y62.117
X33.646Y62.236
X33.545Y62.361
X33.452Y62.490
X33.366Y62.623
X33.288Y62.760
X33.218Y62.899
X33.155Y63.041
X33.100Y63.184
X33.054Y63.328
X33.015Y63.473
X32.983Y63.617
X32.960Y63.760
X32.943Y63.902
X32.933Y64.043
X32.930Y64.181
Y31.181
X32.926Y31.037
X32.916Y30.892
X32.898Y30.746
X32.873Y30.601
X32.841Y30.457
X32.802Y30.313
X32.755Y30.172
X32.702Y30.033
X32.641Y29.896
X32.574Y29.763
X32.501Y29.634
X32.421Y29.509
X32.336Y29.389
X32.246Y29.274
X32.151Y29.164
X32.051Y29.060
X30.051Y27.060
X29.947Y26.960
X29.837Y26.865
X29.722Y26.775
X29.601Y26.690
X29.476Y26.610
X29.347Y26.537
X29.214Y26.470
X29.078Y26.409
X28.939Y26.356
X28.797Y26.309
X28.654Y26.270
X28.510Y26.237
X28.364Y26.212
X28.219Y26.195
X28.074Y26.184
X27.930Y26.181
X18.930
X18.786Y26.184
X18.641Y26.195
X18.495Y26.212
X18.350Y26.237
X18.206Y26.270
X18.063Y26.309
X17.921Y26.356
X17.782Y26.409
X17.646Y26.470
X17.513Y26.537
X17.383Y26.610
X17.258Y26.690
X17.138Y26.775
X17.023Y26.865
X16.913Y26.960
X16.809Y27.060
X15.809Y28.060
X15.709Y28.164
X15.614Y28.274
X15.524Y28.389
X15.439Y28.509
X15.359Y28.634
X15.286Y28.763
X15.219Y28.896
X15.158Y29.033
X15.105Y29.172
X15.058Y29.313
X15.019Y29.457
X14.986Y29.601
X14.962Y29.746
X14.944Y29.892
X14.933Y30.037
X14.930Y30.181
Y38.910
Y51.410
G0Z5.080
G0X34.694Y221.702
G1Z0.000F400.0
G1X34.550Y221.706Z-0.074
G1X34.405Y221.716Z-0.147
G1X34.260Y221.734Z-0.221
G1X34.114Y221.759Z-0.295
G1X33.970Y221.791Z-0.368
G1X33.827Y221.830Z-0.442
G1X33.685Y221.877Z-0.515
G1X33.546Y221.930Z-0.589
G1X33.410Y221.991Z-0.663
G1X33.277Y222.058Z-0.736
G1X33.147Y222.132Z-0.810
G1X33.023Y222.211Z-0.884
G1X32.902Y222.296Z-0.957
G1X32.787Y222.386Z-1.031
G1X32.677Y222.481Z-1.104
G1X32.573Y222.581Z-1.178
G1X31.573Y223.581Z-1.885
G1X31.473Y223.685Z-1.959
G1X31.378Y223.795Z-2.032
G1X31.288Y223.910Z-2.106
G1X31.203Y224.031Z-2.180
G1X31.123Y224.156Z-2.253
G1X31.050Y224.285Z-2.327
G1X30.983Y224.418Z-2.401
G1X30.922Y224.554Z-2.474
G1X30.869Y224.693Z-2.548
G1X30.822Y224.835Z-2.622
G1X30.783Y224.978Z-2.695
G1X30.751Y225.122Z-2.769
G1X30.726Y225.268Z-2.842
G1X30.708Y225.413Z-2.916
G1X30.697Y225.558Z-2.990
G1X30.694Y225.702Z-3.063
G1Y231.061Z-5.742
G1Y232.076Z-6.250
G1Y244.576F1200.0
Y249.061
Y284.702
X30.697Y284.991
X30.707Y285.282
X30.723Y285.575
X30.747Y285.870
X30.777Y286.167
X30.814Y286.466
X30.859Y286.766
X30.911Y287.068
X30.971Y287.370
X31.038Y287.673
X31.113Y287.976
X31.196Y288.279
X31.287Y288.582
X31.385Y288.885
X31.492Y289.187
X31.607Y289.487
X31.730Y289.787
X31.860Y290.084
X31.999Y290.380
X32.146Y290.673
X32.301Y290.964
X32.464Y291.251
X32.635Y291.535
X32.813Y291.816
X32.999Y292.093
X33.193Y292.365
X33.393Y292.633
X33.601Y292.896
X33.816Y293.154
X34.038Y293.407
X34.267Y293.654
X34.502Y293.895
X34.743Y294.129
X34.990Y294.358
X35.242Y294.580
X35.500Y294.795
X35.763Y295.003
X36.031Y295.204
X36.304Y295.397
X36.580Y295.583
X36.861Y295.761
X37.145Y295.932
X37.433Y296.095
X37.723Y296.250
X38.016Y296.397
X38.312Y296.536
X38.609Y296.667
X38.909Y296.789
X39.209Y296.904
X39.511Y297.011
X39.814Y297.110
X40.117Y297.200
X40.420Y297.283
X40.723Y297.358
X41.026Y297.425
X41.328Y297.485
X41.630Y297.537
X41.930Y297.582
X42.229Y297.619
X42.526Y297.650
X42.821Y297.673
X43.114Y297.689
X43.405Y297.699
X43.694Y297.702
X43.838Y297.699
X43.983Y297.688
X44.128Y297.671
X44.274Y297.646
X44.418Y297.613
X44.561Y297.574
X44.703Y297.527
X44.842Y297.474
X44.978Y297.413
X45.111Y297.346
X45.241Y297.273
X45.365Y297.193
X45.486Y297.108
X45.601Y297.018
X45.711Y296.923
X45.815Y296.823
X47.815Y294.823
X47.915Y294.719
X48.010Y294.609
X48.100Y294.494
X48.185Y294.374
X48.265Y294.249
X48.338Y294.120
X48.405Y293.987
X48.466Y293.850
X48.519Y293.711
X48.566Y293.570
X48.605Y293.426
X48.637Y293.282
X48.662Y293.137
X48.680Y292.991
X48.691Y292.846
X48.694Y292.702
Y259.702
X48.697Y259.840
X48.707Y259.981
X48.724Y260.123
X48.747Y260.266
X48.779Y260.410
X48.818Y260.555
X48.864Y260.699
X48.919Y260.842
X48.982Y260.984
X49.052Y261.123
X49.130Y261.260
X49.216Y261.393
X49.309Y261.522
X49.410Y261.647
X49.517Y261.766
X49.630Y261.879
X49.749Y261.986
X49.874Y262.087
X50.003Y262.180
X50.136Y262.266
X50.273Y262.344
X50.412Y262.415
X50.554Y262.477
X50.697Y262.532
X50.841Y262.578
X50.986Y262.617
X51.130Y262.649
X51.274Y262.673
X51.416Y262.689
X51.556Y262.699
X51.694Y262.702
X57.694
X57.556Y262.705
X57.416Y262.715
X57.274Y262.732
X57.130Y262.756
X56.986Y262.787
X56.841Y262.826
X56.697Y262.873
X56.554Y262.927
X56.412Y262.990
X56.273Y263.060
X56.136Y263.138
X56.003Y263.224
X55.874Y263.317
X55.749Y263.418
X55.630Y263.525
X55.517Y263.638
X55.410Y263.757
X55.309Y263.882
X55.216Y264.011
X55.130Y264.144
X55.052Y264.281
X54.982Y264.420
X54.919Y264.562
X54.864Y264.705
X54.818Y264.850
X54.779Y264.994
X54.747Y265.138
X54.724Y265.282
X54.707Y265.424
X54.697Y265.564
X54.694Y265.702
Y292.702
X54.697Y292.846
X54.708Y292.991
X54.726Y293.137
X54.751Y293.282
X54.783Y293.426
X54.822Y293.570
X54.869Y293.711
X54.922Y293.850
X54.983Y293.987
X55.050Y294.120
X55.123Y294.249
X55.203Y294.374
X55.288Y294.494
X55.378Y294.609
X55.473Y294.719
X55.573Y294.823
X57.573Y296.823
X57.677Y296.923
X57.787Y297.018
X57.902Y297.108
X58.023Y297.193
X58.147Y297.273
X58.277Y297.346
X58.410Y297.413
X58.546Y297.474
X58.685Y297.527
X58.827Y297.574
X58.970Y297.613
X59.114Y297.646
X59.260Y297.671
X59.405Y297.688
X59.550Y297.699
X59.694Y297.702
X68.345
X86.345
X130.694
Y304.702
X130.697Y304.846
X130.708Y304.991
X130.726Y305.137
X130.751Y305.282
X130.783Y305.426
X130.822Y305.570
X130.869Y305.711
X130.922Y305.850
X130.983Y305.987
X131.050Y306.120
X131.123Y306.249
X131.203Y306.374
X131.288Y306.494
X131.378Y306.609
X131.473Y306.719
X131.573Y306.823
X133.573Y308.823
X133.677Y308.923
X133.787Y309.018
X133.902Y309.108
X134.023Y309.193
X134.147Y309.273
X134.277Y309.346
X134.410Y309.413
X134.546Y309.474
X134.685Y309.527
X134.827Y309.574
X134.970Y309.613
X135.114Y309.646
X135.260Y309.671
X135.405Y309.688
X135.550Y309.699
X135.694Y309.702
X181.694
X181.838Y309.699
X181.983Y309.688
X182.128Y309.671
X182.274Y309.646
X182.418Y309.613
X182.561Y309.574
X182.703Y309.527
X182.842Y309.474
X182.978Y309.413
X183.111Y309.346
X183.241Y309.273
X183.365Y309.193
X183.486Y309.108
X183.601Y309.018
X183.711Y308.923
X183.815Y308.823
X185.815Y306.823
X185.915Y306.719
X186.010Y306.609
X186.100Y306.494
X186.185Y306.374
X186.265Y306.249
X186.338Y306.120
X186.405Y305.987
X186.466Y305.850
X186.519Y305.711
X186.566Y305.570
X186.605Y305.426
X186.637Y305.282
X186.662Y305.137
X186.680Y304.991
X186.691Y304.846
X186.694Y304.702
Y300.702
X186.691Y300.564
X186.681Y300.424
X186.664Y300.282
X186.641Y300.138
X186.609Y299.994
X186.570Y299.850
X186.524Y299.705
X186.469Y299.562
X186.406Y299.420
X186.336Y299.281
X186.258Y299.144
X186.172Y299.011
X186.079Y298.882
X185.978Y298.757
X185.871Y298.638
X185.758Y298.525
X185.639Y298.418
X185.514Y298.317
X185.385Y298.224
X185.252Y298.138
X185.115Y298.060
X184.976Y297.990
X184.834Y297.927
X184.691Y297.873
X184.547Y297.826
X184.402Y297.787
X184.258Y297.756
X184.114Y297.732
X183.972Y297.715
X183.832Y297.705
X183.694Y297.702
X273.514
X291.514
X306.694
X306.838Y297.699
X306.983Y297.688
X307.128Y297.671
X307.274Y297.646
X307.418Y297.613
X307.561Y297.574
X307.703Y297.527
X307.842Y297.474
X307.978Y297.413
X308.111Y297.346
X308.241Y297.273
X308.365Y297.193
X308.486Y297.108
X308.601Y297.018
X308.711Y296.923
X308.815Y296.823
X309.815Y295.823
X309.915Y295.719
X310.010Y295.609
X310.100Y295.494
X310.185Y295.374
X310.265Y295.249
X310.338Y295.120
X310.405Y294.987
X310.466Y294.850
X310.519Y294.711
X310.566Y294.570
X310.605Y294.426
X310.637Y294.282
X310.662Y294.137
X310.680Y293.991
X310.691Y293.846
X310.694Y293.702
Y284.702
X310.691Y284.558
X310.680Y284.413
X310.662Y284.268
X310.637Y284.122
X310.605Y283.978
X310.566Y283.835
X310.519Y283.693
X310.466Y283.554
X310.405Y283.418
X310.338Y283.285
X310.265Y283.156
X310.185Y283.031
X310.100Y282.910
X310.010Y282.795
X309.915Y282.685
X309.815Y282.581
X307.815Y280.581
X307.711Y280.481
X307.601Y280.386
X307.486Y280.296
X307.365Y280.211
X307.241Y280.132
X307.111Y280.058
X306.978Y279.991
X306.842Y279.931
X306.703Y279.877
X306.561Y279.830
X306.418Y279.791
X306.274Y279.759
X306.128Y279.734
X305.983Y279.716
X305.838Y279.706
X305.694Y279.702
X163.694
X163.556Y279.699
X163.416Y279.689
X163.274Y279.673
X163.130Y279.649
X162.986Y279.617
X162.841Y279.578
X162.697Y279.532
X162.554Y279.477
X162.412Y279.415
X162.273Y279.344
X162.136Y279.266
X162.003Y279.180
X161.874Y279.087
X161.749Y278.986
X161.630Y278.879
X161.517Y278.766
X161.410Y278.647
X161.309Y278.522
X161.216Y278.393
X161.130Y278.260
X161.052Y278.123
X160.982Y277.984
X160.919Y277.842
X160.864Y277.699
X160.818Y277.555
X160.779Y277.410
X160.747Y277.266
X160.724Y277.123
X160.707Y276.981
X160.697Y276.840
X160.694Y276.702
Y263.702
X160.697Y263.564
X160.707Y263.424
X160.724Y263.282
X160.747Y263.138
X160.779Y262.994
X160.818Y262.850
X160.864Y262.705
X160.919Y262.562
X160.982Y262.420
X161.052Y262.281
X161.130Y262.144
X161.216Y262.011
X161.309Y261.882
X161.410Y261.757
X161.517Y261.638
X161.630Y261.525
X161.749Y261.418
X161.874Y261.317
X162.003Y261.224
X162.136Y261.138
X162.273Y261.060
X162.412Y260.990
X162.554Y260.927
X162.697Y260.873
X162.841Y260.826
X162.986Y260.787
X163.130Y260.756
X163.274Y260.732
X163.416Y260.715
X163.556Y260.705
X163.694Y260.702
X297.694
X297.987Y260.699
X298.282Y260.689
X298.579Y260.672
X298.878Y260.648
X299.178Y260.617
X299.480Y260.579
X299.784Y260.533
X300.088Y260.480
X300.393Y260.419
X300.698Y260.350
X301.004Y260.274
X301.309Y260.189
X301.614Y260.097
X301.918Y259.997
X302.222Y259.888
X302.524Y259.772
X302.824Y259.647
X303.122Y259.515
X303.418Y259.374
X303.711Y259.226
X304.002Y259.069
X304.289Y258.905
X304.573Y258.733
X304.853Y258.554
X305.128Y258.367
X305.400Y258.172
X305.666Y257.971
X305.928Y257.762
X306.184Y257.547
X306.435Y257.325
X306.680Y257.097
X306.919Y256.862
X307.151Y256.622
X307.377Y256.376
X307.597Y256.124
X307.809Y255.868
X308.015Y255.606
X308.213Y255.340
X308.404Y255.070
X308.588Y254.796
X308.764Y254.518
X308.932Y254.237
X309.093Y253.953
X309.245Y253.666
X309.390Y253.377
X309.527Y253.085
X309.656Y252.792
X309.777Y252.497
X309.891Y252.201
X309.996Y251.905
X310.094Y251.607
X310.184Y251.309
X310.266Y251.012
X310.340Y250.714
X310.407Y250.417
X310.467Y250.121
X310.519Y249.825
X310.565Y249.531
X310.603Y249.239
X310.634Y248.948
X310.660Y248.637
X310.679Y248.326
X310.690Y248.014
X310.694Y247.702
Y231.061
Y225.702
X310.691Y225.558
X310.680Y225.413
X310.662Y225.268
X310.637Y225.122
X310.605Y224.978
X310.566Y224.835
X310.519Y224.693
X310.466Y224.554
X310.405Y224.418
X310.338Y224.285
X310.265Y224.156
X310.185Y224.031
X310.100Y223.910
X310.010Y223.795
X309.915Y223.685
X309.815Y223.581
X308.815Y222.581
X308.711Y222.481
X308.601Y222.386
X308.486Y222.296
X308.365Y222.211
X308.241Y222.132
X308.111Y222.058
X307.978Y221.991
X307.842Y221.930
X307.703Y221.877
X307.561Y221.830
X307.418Y221.791
X307.274Y221.759
X307.128Y221.734
X306.983Y221.716
X306.838Y221.706
X306.694Y221.702
X166.242
X148.242
X34.694
X34.550Y221.706
X34.405Y221.716
X34.260Y221.734
X34.114Y221.759
X33.970Y221.791
X33.827Y221.830
X33.685Y221.877
X33.546Y221.930
X33.410Y221.991
X33.277Y222.058
X33.147Y222.132
X33.023Y222.211
X32.902Y222.296
X32.787Y222.386
X32.677Y222.481
X32.573Y222.581
X31.573Y223.581
X31.473Y223.685
X31.378Y223.795
X31.288Y223.910
X31.203Y224.031
X31.123Y224.156
X31.050Y224.285
X30.983Y224.418
X30.922Y224.554
X30.869Y224.693
X30.822Y224.835
X30.783Y224.978
X30.751Y225.122
X30.726Y225.268
X30.708Y225.413
X30.697Y225.558
X30.694Y225.702
Y231.061
Y232.076
G1Y244.576Z-10.000F400.0
G1Y249.061F1200.0
G1Z-12.500F400.0
G1Y284.702F1200.0
X30.697Y284.991
X30.707Y285.282
X30.723Y285.575
X30.747Y285.870
X30.777Y286.167
X30.814Y286.466
X30.859Y286.766
X30.911Y287.068
X30.971Y287.370
X31.038Y287.673
X31.113Y287.976
X31.196Y288.279
X31.287Y288.582
X31.385Y288.885
X31.492Y289.187
X31.607Y289.487
X31.730Y289.787
X31.860Y290.084
X31.999Y290.380
X32.146Y290.673
X32.301Y290.964
X32.464Y291.251
X32.635Y291.535
X32.813Y291.816
X32.999Y292.093
X33.193Y292.365
X33.393Y292.633
X33.601Y292.896
X33.816Y293.154
X34.038Y293.407
X34.267Y293.654
X34.502Y293.895
X34.743Y294.129
X34.990Y294.358
X35.242Y294.580
X35.500Y294.795
X35.763Y295.003
X36.031Y295.204
X36.304Y295.397
X36.580Y295.583
X36.861Y295.761
X37.145Y295.932
X37.433Y296.095
X37.723Y296.250
X38.016Y296.397
X38.312Y296.536
X38.609Y296.667
X38.909Y296.789
X39.209Y296.904
X39.511Y297.011
X39.814Y297.110
X40.117Y297.200
X40.420Y297.283
X40.723Y297.358
X41.026Y297.425
X41.328Y297.485
X41.630Y297.537
X41.930Y297.582
X42.229Y297.619
X42.526Y297.650
X42.821Y297.673
X43.114Y297.689
X43.405Y297.699
X43.694Y297.702
X43.838Y297.699
X43.983Y297.688
X44.128Y297.671
X44.274Y297.646
X44.418Y297.613
X44.561Y297.574
X44.703Y297.527
X44.842Y297.474
X44.978Y297.413
X45.111Y297.346
X45.241Y297.273
X45.365Y297.193
X45.486Y297.108
X45.601Y297.018
X45.711Y296.923
X45.815Y296.823
X47.815Y294.823
X47.915Y294.719
X48.010Y294.609
X48.100Y294.494
X48.185Y294.374
X48.265Y294.249
X48.338Y294.120
X48.405Y293.987
X48.466Y293.850
X48.519Y293.711
X48.566Y293.570
X48.605Y293.426
X48.637Y293.282
X48.662Y293.137
X48.680Y292.991
X48.691Y292.846
X48.694Y292.702
Y259.702
X48.697Y259.840
X48.707Y259.981
X48.724Y260.123
X48.747Y260.266
X48.779Y260.410
X48.818Y260.555
X48.864Y260.699
X48.919Y260.842
X48.982Y260.984
X49.052Y261.123
X49.130Y261.260
X49.216Y261.393
X49.309Y261.522
X49.410Y261.647
X49.517Y261.766
X49.630Y261.879
X49.749Y261.986
X49.874Y262.087
X50.003Y262.180
X50.136Y262.266
X50.273Y262.344
X50.412Y262.415
X50.554Y262.477
X50.697Y262.532
X50.841Y262.578
X50.986Y262.617
X51.130Y262.649
X51.274Y262.673
X51.416Y262.689
X51.556Y262.699
X51.694Y262.702
X57.694
X57.556Y262.705
X57.416Y262.715
X57.274Y262.732
X57.130Y262.756
X56.986Y262.787
X56.841Y262.826
X56.697Y262.873
X56.554Y262.927
X56.412Y262.990
X56.273Y263.060
X56.136Y263.138
X56.003Y263.224
X55.874Y263.317
X55.749Y263.418
X55.630Y263.525
X55.517Y263.638
X55.410Y263.757
X55.309Y263.882
X55.216Y264.011
X55.130Y264.144
X55.052Y264.281
X54.982Y264.420
X54.919Y264.562
X54.864Y264.705
X54.818Y264.850
X54.779Y264.994
X54.747Y265.138
X54.724Y265.282
X54.707Y265.424
X54.697Y265.564
X54.694Y265.702
Y292.702
X54.697Y292.846
X54.708Y292.991
X54.726Y293.137
X54.751Y293.282
X54.783Y293.426
X54.822Y293.570
X54.869Y293.711
X54.922Y293.850
X54.983Y293.987
X55.050Y294.120
X55.123Y294.249
X55.203Y294.374
X55.288Y294.494
X55.378Y294.609
X55.473Y294.719
X55.573Y294.823
X57.573Y296.823
X57.677Y296.923
X57.787Y297.018
X57.902Y297.108
X58.023Y297.193
X58.147Y297.273
X58.277Y297.346
X58.410Y297.413
X58.546Y297.474
X58.685Y297.527
X58.827Y297.574
X58.970Y297.613
X59.114Y297.646
X59.260Y297.671
X59.405Y297.688
X59.550Y297.699
X59.694Y297.702
X68.345
Z-10.000
X86.345
G1Z-12.500F400.0
G1X130.694F1200.0
Y304.702
X130.697Y304.846
X130.708Y304.991
X130.726Y305.137
X130.751Y305.282
X130.783Y305.426
X130.822Y305.570
X130.869Y305.711
X130.922Y305.850
X130.983Y305.987
X131.050Y306.120
X131.123Y306.249
X131.203Y306.374
X131.288Y306.494
X131.378Y306.609
X131.473Y306.719
X131.573Y306.823
X133.573Y308.823
X133.677Y308.923
X133.787Y309.018
X133.902Y309.108
X134.023Y309.193
X134.147Y309.273
X134.277Y309.346
X134.410Y309.413
X134.546Y309.474
X134.685Y309.527
X134.827Y309.574
X134.970Y309.613
X135.114Y309.646
X135.260Y309.671
X135.405Y309.688
X135.550Y309.699
X135.694Y309.702
X181.694
X181.838Y309.699
X181.983Y309.688
X182.128Y309.671
X182.274Y309.646
X182.418Y309.613
X182.561Y309.574
X182.703Y309.527
X182.842Y309.474
X182.978Y309.413
X183.111Y309.346
X183.241Y309.273
X183.365Y309.193
X183.486Y309.108
X183.601Y309.018
X183.711Y308.923
X183.815Y308.823
X185.815Y306.823
X185.915Y306.719
X186.010Y306.609
X186.100Y306.494
X186.185Y306.374
X186.265Y306.249
X186.338Y306.120
X186.405Y305.987
X186.466Y305.850
X186.519Y305.711
X186.566Y305.570
X186.605Y305.426
X186.637Y305.282
X186.662Y305.137
X186.680Y304.991
X186.691Y304.846
X186.694Y304.702
Y300.702
X186.691Y300.564
X186.681Y300.424
X186.664Y300.282
X186.641Y300.138
X186.609Y299.994
X186.570Y299.850
X186.524Y299.705
X186.469Y299.562
X186.406Y299.420
X186.336Y299.281
X186.258Y299.144
X186.172Y299.011
X186.079Y298.882
X185.978Y298.757
X185.871Y298.638
X185.758Y298.525
X185.639Y298.418
X185.514Y298.317
X185.385Y298.224
X185.252Y298.138
X185.115Y298.060
X184.976Y297.990
X184.834Y297.927
X184.691Y297.873
X184.547Y297.826
X184.402Y297.787
X184.258Y297.756
X184.114Y297.732
X183.972Y297.715
X183.832Y297.705
X183.694Y297.702
X273.514
Z-10.000
X291.514
G1Z-12.500F400.0
G1X306.694F1200.0
X306.838Y297.699
X306.983Y297.688
X307.128Y297.671
X307.274Y297.646
X307.418Y297.613
X307.561Y297.574
X307.703Y297.527
X307.842Y297.474
X307.978Y297.413
X308.111Y297.346
X308.241Y297.273
X308.365Y297.193
X308.486Y297.108
X308.601Y297.018
X308.711Y296.923
X308.815Y296.823
X309.815Y295.823
X309.915Y295.719
X310.010Y295.609
X310.100Y295.494
X310.185Y295.374
X310.265Y295.249
X310.338Y295.120
X310.405Y294.987
X310.466Y294.850
X310.519Y294.711
X310.566Y294.570
X310.605Y294.426
X310.637Y294.282
X310.662Y294.137
X310.680Y293.991
X310.691Y293.846
X310.694Y293.702
Y284.702
X310.691Y284.558
X310.680Y284.413
X310.662Y284.268
X310.637Y284.122
X310.605Y283.978
X310.566Y283.835
X310.519Y283.693
X310.466Y283.554
X310.405Y283.418
X310.338Y283.285
X310.265Y283.156
X310.185Y283.031
X310.100Y282.910
X310.010Y282.795
X309.915Y282.685
X309.815Y282.581
X307.815Y280.581
X307.711Y280.481
X307.601Y280.386
X307.486Y280.296
X307.365Y280.211
X307.241Y280.132
X307.111Y280.058
X306.978Y279.991
X306.842Y279.931
X306.703Y279.877
X306.561Y279.830
X306.418Y279.791
X306.274Y279.759
X306.128Y279.734
X305.983Y279.716
X305.838Y279.706
X305.694Y279.702
X163.694
X163.556Y279.699
X163.416Y279.689
X163.274Y279.673
X163.130Y279.649
X162.986Y279.617
X162.841Y279.578
X162.697Y279.532
X162.554Y279.477
X162.412Y279.415
X162.273Y279.344
X162.136Y279.266
X162.003Y279.180
X161.874Y279.087
X161.749Y278.986
X161.630Y278.879
X161.517Y278.766
X161.410Y278.647
X161.309Y278.522
X161.216Y278.393
X161.130Y278.260
X161.052Y278.123
X160.982Y277.984
X160.919Y277.842
X160.864Y277.699
X160.818Y277.555
X160.779Y277.410
X160.747Y277.266
X160.724Y277.123
X160.707Y276.981
X160.697Y276.840
X160.694Y276.702
Y263.702
X160.697Y263.564
X160.707Y263.424
X160.724Y263.282
X160.747Y263.138
X160.779Y262.994
X160.818Y262.850
X160.864Y262.705
X160.919Y262.562
X160.982Y262.420
X161.052Y262.281
X161.130Y262.144
X161.216Y262.011
X161.309Y261.882
X161.410Y261.757
X161.517Y261.638
X161.630Y261.525
X161.749Y261.418
X161.874Y261.317
X162.003Y261.224
X162.136Y261.138
X162.273Y261.060
X162.412Y260.990
X162.554Y260.927
X162.697Y260.873
X162.841Y260.826
X162.986Y260.787
X163.130Y260.756
X163.274Y260.732
X163.416Y260.715
X163.556Y260.705
X163.694Y260.702
X297.694
X297.987Y260.699
X298.282Y260.689
X298.579Y260.672
X298.878Y260.648
X299.178Y260.617
X299.480Y260.579
X299.784Y260.533
X300.088Y260.480
X300.393Y260.419
X300.698Y260.350
X301.004Y260.274
X301.309Y260.189
X301.614Y260.097
X301.918Y259.997
X302.222Y259.888
X302.524Y259.772
X302.824Y259.647
X303.122Y259.515
X303.418Y259.374
X303.711Y259.226
X304.002Y259.069
X304.289Y258.905
X304.573Y258.733
X304.853Y258.554
X305.128Y258.367
X305.400Y258.172
X305.666Y257.971
X305.928Y257.762
X306.184Y257.547
X306.435Y257.325
X306.680Y257.097
X306.919Y256.862
X307.151Y256.622
X307.377Y256.376
X307.597Y256.124
X307.809Y255.868
X308.015Y255.606
X308.213Y255.340
X308.404Y255.070
X308.588Y254.796
X308.764Y254.518
X308.932Y254.237
X309.093Y253.953
X309.245Y253.666
X309.390Y253.377
X309.527Y253.085
X309.656Y252.792
X309.777Y252.497
X309.891Y252.201
X309.996Y251.905
X310.094Y251.607
X310.184Y251.309
X310.266Y251.012
X310.340Y250.714
X310.407Y250.417
X310.467Y250.121
X310.519Y249.825
X310.565Y249.531
X310.603Y249.239
X310.634Y248.948
Z-10.000
X310.660Y248.637
X310.679Y248.326
X310.690Y248.014
X310.694Y247.702
Y231.061
G1Z-12.500F400.0
G1Y225.702F1200.0
X310.691Y225.558
X310.680Y225.413
X310.662Y225.268
X310.637Y225.122
X310.605Y224.978
X310.566Y224.835
X310.519Y224.693
X310.466Y224.554
X310.405Y224.418
X310.338Y224.285
X310.265Y224.156
X310.185Y224.031
X310.100Y223.910
X310.010Y223.795
X309.915Y223.685
X309.815Y223.581
X308.815Y222.581
X308.711Y222.481
X308.601Y222.386
X308.486Y222.296
X308.365Y222.211
X308.241Y222.132
X308.111Y222.058
X307.978Y221.991
X307.842Y221.930
X307.703Y221.877
X307.561Y221.830
X307.418Y221.791
X307.274Y221.759
X307.128Y221.734
X306.983Y221.716
X306.838Y221.706
X306.694Y221.702
X166.242
Z-10.000
X148.242
G1Z-12.500F400.0
G1X34.694F1200.0
X34.550Y221.706
X34.405Y221.716
X34.260Y221.734
X34.114Y221.759
X33.970Y221.791
X33.827Y221.830
X33.685Y221.877
X33.546Y221.930
X33.410Y221.991
X33.277Y222.058
X33.147Y222.132
X33.023Y222.211
X32.902Y222.296
X32.787Y222.386
X32.677Y222.481
X32.573Y222.581
X31.573Y223.581
X31.473Y223.685
X31.378Y223.795
X31.288Y223.910
X31.203Y224.031
X31.123Y224.156
X31.050Y224.285
X30.983Y224.418
X30.922Y224.554
X30.869Y224.693
X30.822Y224.835
X30.783Y224.978
X30.751Y225.122
X30.726Y225.268
X30.708Y225.413
X30.697Y225.558
X30.694Y225.702
Y231.061
Z-10.000
Y232.076
Y244.576
G0Z5.080
G0X158.910Y197.861
G1Z0.000F400.0
G1X158.913Y198.005Z-0.074
G1X158.924Y198.150Z-0.147
G1X158.941Y198.295Z-0.221
G1X158.966Y198.441Z-0.295
G1X158.998Y198.585Z-0.368
G1X159.038Y198.728Z-0.442
G1X159.084Y198.870Z-0.515
G1X159.138Y199.009Z-0.589
G1X159.199Y199.145Z-0.663
G1X159.266Y199.278Z-0.736
G1X159.339Y199.408Z-0.810
G1X159.418Y199.533Z-0.884
G1X159.504Y199.653Z-0.957
G1X159.594Y199.768Z-1.031
G1X159.689Y199.878Z-1.104
G1X159.788Y199.982Z-1.178
G1X160.788Y200.982Z-1.885
G1X160.893Y201.082Z-1.959
G1X161.003Y201.177Z-2.032
G1X161.118Y201.267Z-2.106
G1X161.238Y201.352Z-2.180
G1X161.363Y201.432Z-2.253
G1X161.492Y201.505Z-2.327
G1X161.625Y201.572Z-2.401
G1X161.762Y201.633Z-2.474
G1X161.901Y201.686Z-2.548
G1X162.042Y201.733Z-2.622
G1X162.186Y201.772Z-2.695
G1X162.330Y201.805Z-2.769
G1X162.475Y201.829Z-2.842
G1X162.621Y201.847Z-2.916
G1X162.766Y201.858Z-2.990
G1X162.910Y201.861Z-3.063
G1X169.283Z-6.250
G1X173.888Z-6.250F1200.0
X181.783
X191.888
X285.910
X285.772Y201.864
X285.631Y201.874
X285.489Y201.891
X285.346Y201.915
X285.202Y201.946
X285.057Y201.985
X284.913Y202.031
X284.770Y202.086
X284.628Y202.149
X284.488Y202.219
X284.352Y202.297
X284.219Y202.383
X284.089Y202.476
X283.965Y202.577
X283.846Y202.684
X283.732Y202.797
X283.625Y202.916
X283.525Y203.041
X283.432Y203.170
X283.346Y203.303
X283.268Y203.440
X283.197Y203.579
X283.135Y203.721
X283.080Y203.864
X283.033Y204.008
X282.994Y204.153
X282.963Y204.297
X282.939Y204.441
X282.923Y204.583
X282.913Y204.723
X282.910Y204.861
Y208.861
X282.913Y209.005
X282.924Y209.150
X282.941Y209.295
X282.966Y209.441
X282.998Y209.585
X283.038Y209.728
X283.084Y209.870
X283.138Y210.009
X283.199Y210.145
X283.266Y210.278
X283.339Y210.408
X283.418Y210.533
X283.504Y210.653
X283.594Y210.768
X283.689Y210.878
X283.788Y210.982
X285.788Y212.982
X285.893Y213.082
X286.003Y213.177
X286.118Y213.267
X286.238Y213.352
X286.363Y213.432
X286.492Y213.505
X286.625Y213.572
X286.762Y213.633
X286.901Y213.686
X287.042Y213.733
X287.186Y213.772
X287.330Y213.805
X287.475Y213.829
X287.621Y213.847
X287.766Y213.858
X287.910Y213.861
X333.910
X334.054Y213.858
X334.199Y213.847
X334.344Y213.829
X334.489Y213.805
X334.634Y213.772
X334.777Y213.733
X334.919Y213.686
X335.058Y213.633
X335.194Y213.572
X335.327Y213.505
X335.456Y213.432
X335.581Y213.352
X335.701Y213.267
X335.817Y213.177
X335.927Y213.082
X336.031Y212.982
X338.031Y210.982
X338.130Y210.878
X338.226Y210.768
X338.316Y210.653
X338.401Y210.533
X338.480Y210.408
X338.554Y210.278
X338.621Y210.145
X338.681Y210.009
X338.735Y209.870
X338.782Y209.728
X338.821Y209.585
X338.853Y209.441
X338.878Y209.295
X338.896Y209.150
X338.906Y209.005
X338.910Y208.861
Y201.861
X383.989
X401.989
X409.910
X410.054Y201.858
X410.199Y201.847
X410.344Y201.829
X410.489Y201.805
X410.634Y201.772
X410.777Y201.733
X410.919Y201.686
X411.058Y201.633
X411.194Y201.572
X411.327Y201.505
X411.456Y201.432
X411.581Y201.352
X411.701Y201.267
X411.817Y201.177
X411.927Y201.082
X412.031Y200.982
X414.031Y198.982
X414.130Y198.878
X414.226Y198.768
X414.316Y198.653
X414.401Y198.533
X414.480Y198.408
X414.554Y198.278
X414.621Y198.145
X414.681Y198.009
X414.735Y197.870
X414.782Y197.728
X414.821Y197.585
X414.853Y197.441
X414.878Y197.295
X414.896Y197.150
X414.906Y197.005
X414.910Y196.861
Y169.861
X414.906Y169.723
X414.897Y169.583
X414.880Y169.441
X414.856Y169.297
X414.825Y169.153
X414.786Y169.008
X414.739Y168.864
X414.685Y168.721
X414.622Y168.579
X414.552Y168.440
X414.473Y168.303
X414.388Y168.170
X414.294Y168.041
X414.194Y167.916
X414.087Y167.797
X413.974Y167.684
X413.854Y167.577
X413.730Y167.476
X413.601Y167.383
X413.468Y167.297
X413.331Y167.219
X413.191Y167.149
X413.050Y167.086
X412.906Y167.031
X412.762Y166.985
X412.618Y166.946
X412.474Y166.915
X412.330Y166.891
X412.188Y166.874
X412.048Y166.864
X411.910Y166.861
X417.910
X418.048Y166.858
X418.188Y166.848
X418.330Y166.831
X418.474Y166.808
X418.618Y166.776
X418.762Y166.737
X418.906Y166.691
X419.050Y166.636
X419.191Y166.573
X419.331Y166.503
X419.468Y166.425
X419.601Y166.339
X419.730Y166.246
X419.854Y166.145
X419.974Y166.038
X420.087Y165.925
X420.194Y165.806
X420.294Y165.681
X420.388Y165.552
X420.473Y165.419
X420.552Y165.282
X420.622Y165.143
X420.685Y165.001
X420.739Y164.858
X420.786Y164.714
X420.825Y164.569
X420.856Y164.425
X420.880Y164.282
X420.897Y164.139
X420.906Y163.999
X420.910Y163.861
Y196.861
X420.913Y197.005
X420.924Y197.150
X420.941Y197.295
X420.966Y197.441
X420.998Y197.585
X421.038Y197.728
X421.084Y197.870
X421.138Y198.009
X421.199Y198.145
X421.266Y198.278
X421.339Y198.408
X421.418Y198.533
X421.504Y198.653
X421.594Y198.768
X421.689Y198.878
X421.788Y198.982
X423.788Y200.982
X423.893Y201.082
X424.003Y201.177
X424.118Y201.267
X424.238Y201.352
X424.363Y201.432
X424.492Y201.505
X424.625Y201.572
X424.762Y201.633
X424.901Y201.686
X425.042Y201.733
X425.186Y201.772
X425.330Y201.805
X425.475Y201.829
X425.621Y201.847
X425.766Y201.858
X425.910Y201.861
X426.198Y201.858
X426.489Y201.848
X426.782Y201.832
X427.078Y201.808
X427.375Y201.778
X427.674Y201.741
X427.974Y201.696
X428.275Y201.644
X428.577Y201.584
X428.880Y201.517
X429.183Y201.442
X429.487Y201.359
X429.790Y201.268
X430.092Y201.170
X430.394Y201.063
X430.695Y200.948
X430.994Y200.825
X431.292Y200.695
X431.587Y200.556
X431.881Y200.409
X432.171Y200.254
X432.459Y200.091
X432.743Y199.920
X433.023Y199.742
X433.300Y199.556
X433.573Y199.362
X433.840Y199.162
X434.104Y198.954
X434.362Y198.739
X434.614Y198.517
X434.861Y198.288
X435.102Y198.053
X435.337Y197.812
X435.565Y197.565
X435.787Y197.313
X436.002Y197.055
X436.210Y196.792
X436.411Y196.524
X436.605Y196.251
X436.791Y195.975
X436.969Y195.694
X437.140Y195.410
X437.302Y195.122
X437.457Y194.832
X437.604Y194.539
X437.743Y194.243
X437.874Y193.946
X437.997Y193.646
X438.112Y193.346
X438.218Y193.044
X438.317Y192.741
X438.408Y192.438
X438.491Y192.135
X438.566Y191.832
X438.633Y191.529
X438.693Y191.227
X438.745Y190.925
X438.789Y190.625
X438.827Y190.326
X438.857Y190.029
X438.880Y189.734
X438.897Y189.441
X438.906Y189.150
X438.910Y188.861
Y180.013
Y162.013
Y129.861
X438.906Y129.717
X438.896Y129.572
X438.878Y129.427
X438.853Y129.281
X438.821Y129.137
X438.782Y128.994
X438.735Y128.852
X438.681Y128.713
X438.621Y128.577
X438.554Y128.444
X438.480Y128.314
X438.401Y128.190
X438.316Y128.069
X438.226Y127.954
X438.130Y127.844
X438.031Y127.740
X437.031Y126.740
X436.927Y126.640
X436.817Y126.545
X436.701Y126.455
X436.581Y126.370
X436.456Y126.290
X436.327Y126.217
X436.194Y126.150
X436.058Y126.089
X435.919Y126.036
X435.777Y125.989
X435.634Y125.950
X435.489Y125.918
X435.344Y125.893
X435.199Y125.875
X435.054Y125.864
X434.910Y125.861
X318.146
X300.146
X162.910
X162.766Y125.864
X162.621Y125.875
X162.475Y125.893
X162.330Y125.918
X162.186Y125.950
X162.042Y125.989
X161.901Y126.036
X161.762Y126.089
X161.625Y126.150
X161.492Y126.217
X161.363Y126.290
X161.238Y126.370
X161.118Y126.455
X161.003Y126.545
X160.893Y126.640
X160.788Y126.740
X159.788Y127.740
X159.689Y127.844
X159.594Y127.954
X159.504Y128.069
X159.418Y128.190
X159.339Y128.314
X159.266Y128.444
X159.199Y128.577
X159.138Y128.713
X159.084Y128.852
X159.038Y128.994
X158.998Y129.137
X158.966Y129.281
X158.941Y129.427
X158.924Y129.572
X158.913Y129.717
X158.910Y129.861
Y132.422
Y150.422
Y151.861
X158.913Y152.150
X158.923Y152.441
X158.939Y152.734
X158.962Y153.029
X158.993Y153.326
X159.030Y153.625
X159.075Y153.925
X159.127Y154.227
X159.186Y154.529
X159.254Y154.832
X159.329Y155.135
X159.411Y155.438
X159.502Y155.741
X159.601Y156.044
X159.708Y156.346
X159.822Y156.646
X159.945Y156.946
X160.076Y157.243
X160.215Y157.539
X160.362Y157.832
X160.517Y158.122
X160.680Y158.410
X160.850Y158.694
X161.029Y158.975
X161.215Y159.251
X161.408Y159.524
X161.609Y159.792
X161.817Y160.055
X162.032Y160.313
X162.254Y160.565
X162.482Y160.812
X162.717Y161.053
X162.958Y161.288
X163.205Y161.517
X163.458Y161.739
X163.716Y161.954
X163.979Y162.162
X164.247Y162.362
X164.519Y162.556
X164.796Y162.742
X165.077Y162.920
X165.361Y163.091
X165.648Y163.254
X165.939Y163.409
X166.232Y163.556
X166.528Y163.695
X166.825Y163.825
X167.124Y163.948
X167.425Y164.063
X167.727Y164.170
X168.030Y164.268
X168.333Y164.359
X168.636Y164.442
X168.939Y164.517
X169.242Y164.584
X169.544Y164.644
X169.845Y164.696
X170.146Y164.741
X170.444Y164.778
X170.742Y164.808
X171.037Y164.832
X171.330Y164.848
X171.621Y164.858
X171.910Y164.861
X305.910
X306.048Y164.864
X306.188Y164.874
X306.330Y164.891
X306.474Y164.915
X306.618Y164.946
X306.762Y164.985
X306.906Y165.031
X307.050Y165.086
X307.191Y165.149
X307.331Y165.219
X307.468Y165.297
X307.601Y165.383
X307.730Y165.476
X307.854Y165.577
X307.974Y165.684
X308.087Y165.797
X308.194Y165.916
X308.294Y166.041
X308.388Y166.170
X308.473Y166.303
X308.552Y166.440
X308.622Y166.579
X308.685Y166.721
X308.739Y166.864
X308.786Y167.008
X308.825Y167.153
X308.856Y167.297
X308.880Y167.441
X308.897Y167.583
X308.906Y167.723
X308.910Y167.861
Y180.861
X308.906Y180.999
X308.897Y181.139
X308.880Y181.282
X308.856Y181.425
X308.825Y181.569
X308.786Y181.714
X308.739Y181.858
X308.685Y182.001
X308.622Y182.143
X308.552Y182.282
X308.473Y182.419
X308.388Y182.552
X308.294Y182.681
X308.194Y182.806
X308.087Y182.925
X307.974Y183.038
X307.854Y183.145
X307.730Y183.246
X307.601Y183.339
X307.468Y183.425
X307.331Y183.503
X307.191Y183.573
X307.050Y183.636
X306.906Y183.691
X306.762Y183.737
X306.618Y183.776
X306.474Y183.808
X306.330Y183.831
X306.188Y183.848
X306.048Y183.858
X305.910Y183.861
X163.910
X163.766Y183.865
X163.621Y183.875
X163.475Y183.893
X163.330Y183.918
X163.186Y183.950
X163.042Y183.989
X162.901Y184.036
X162.762Y184.089
X162.625Y184.150
X162.492Y184.217
X162.363Y184.290
X162.238Y184.370
X162.118Y184.455
X162.003Y184.545
X161.893Y184.640
X161.788Y184.740
X159.788Y186.740
X159.689Y186.844
X159.594Y186.954
X159.504Y187.069
X159.418Y187.190
X159.339Y187.314
X159.266Y187.444
X159.199Y187.577
X159.138Y187.713
X159.084Y187.852
X159.038Y187.994
X158.998Y188.137
X158.966Y188.281
X158.941Y188.427
X158.924Y188.572
X158.913Y188.717
X158.910Y188.861
Y197.861
X158.913Y198.005
X158.924Y198.150
X158.941Y198.295
X158.966Y198.441
X158.998Y198.585
X159.038Y198.728
X159.084Y198.870
X159.138Y199.009
X159.199Y199.145
X159.266Y199.278
X159.339Y199.408
X159.418Y199.533
X159.504Y199.653
X159.594Y199.768
X159.689Y199.878
X159.788Y199.982
X160.788Y200.982
X160.893Y201.082
X161.003Y201.177
X161.118Y201.267
X161.238Y201.352
X161.363Y201.432
X161.492Y201.505
X161.625Y201.572
X161.762Y201.633
X161.901Y201.686
X162.042Y201.733
X162.186Y201.772
X162.330Y201.805
X162.475Y201.829
X162.621Y201.847
X162.766Y201.858
X162.910Y201.861
X169.283
G1X173.888Z-8.553F400.0
G1X181.783Z-10.000
G1X191.888F1200.0
G1Z-12.500F400.0
G1X285.910F1200.0
X285.772Y201.864
X285.631Y201.874
X285.489Y201.891
X285.346Y201.915
X285.202Y201.946
X285.057Y201.985
X284.913Y202.031
X284.770Y202.086
X284.628Y202.149
X284.488Y202.219
X284.352Y202.297
X284.219Y202.383
X284.089Y202.476
X283.965Y202.577
X283.846Y202.684
X283.732Y202.797
X283.625Y202.916
X283.525Y203.041
X283.432Y203.170
X283.346Y203.303
X283.268Y203.440
X283.197Y203.579
X283.135Y203.721
X283.080Y203.864
X283.033Y204.008
X282.994Y204.153
X282.963Y204.297
X282.939Y204.441
X282.923Y204.583
X282.913Y204.723
X282.910Y204.861
Y208.861
X282.913Y209.005
X282.924Y209.150
X282.941Y209.295
X282.966Y209.441
X282.998Y209.585
X283.038Y209.728
X283.084Y209.870
X283.138Y210.009
X283.199Y210.145
X283.266Y210.278
X283.339Y210.408
X283.418Y210.533
X283.504Y210.653
X283.594Y210.768
X283.689Y210.878
X283.788Y210.982
X285.788Y212.982
X285.893Y213.082
X286.003Y213.177
X286.118Y213.267
X286.238Y213.352
X286.363Y213.432
X286.492Y213.505
X286.625Y213.572
X286.762Y213.633
X286.901Y213.686
X287.042Y213.733
X287.186Y213.772
X287.330Y213.805
X287.475Y213.829
X287.621Y213.847
X287.766Y213.858
X287.910Y213.861
X333.910
X334.054Y213.858
X334.199Y213.847
X334.344Y213.829
X334.489Y213.805
X334.634Y213.772
X334.777Y213.733
X334.919Y213.686
X335.058Y213.633
X335.194Y213.572
X335.327Y213.505
X335.456Y213.432
X335.581Y213.352
X335.701Y213.267
X335.817Y213.177
X335.927Y213.082
X336.031Y212.982
X338.031Y210.982
X338.130Y210.878
X338.226Y210.768
X338.316Y210.653
X338.401Y210.533
X338.480Y210.408
X338.554Y210.278
X338.621Y210.145
X338.681Y210.009
X338.735Y209.870
X338.782Y209.728
X338.821Y209.585
X338.853Y209.441
X338.878Y209.295
X338.896Y209.150
X338.906Y209.005
X338.910Y208.861
Y201.861
X383.989
Z-10.000
X401.989
G1Z-12.500F400.0
G1X409.910F1200.0
X410.054Y201.858
X410.199Y201.847
X410.344Y201.829
X410.489Y201.805
X410.634Y201.772
X410.777Y201.733
X410.919Y201.686
X411.058Y201.633
X411.194Y201.572
X411.327Y201.505
X411.456Y201.432
X411.581Y201.352
X411.701Y201.267
X411.817Y201.177
X411.927Y201.082
X412.031Y200.982
X414.031Y198.982
X414.130Y198.878
X414.226Y198.768
X414.316Y198.653
X414.401Y198.533
X414.480Y198.408
X414.554Y198.278
X414.621Y198.145
X414.681Y198.009
X414.735Y197.870
X414.782Y197.728
X414.821Y197.585
X414.853Y197.441
X414.878Y197.295
X414.896Y197.150
X414.906Y197.005
X414.910Y196.861
Y169.861
X414.906Y169.723
X414.897Y169.583
X414.880Y169.441
X414.856Y169.297
X414.825Y169.153
X414.786Y169.008
X414.739Y168.864
X414.685Y168.721
X414.622Y168.579
X414.552Y168.440
X414.473Y168.303
X414.388Y168.170
X414.294Y168.041
X414.194Y167.916
X414.087Y167.797
X413.974Y167.684
X413.854Y167.577
X413.730Y167.476
X413.601Y167.383
X413.468Y167.297
X413.331Y167.219
X413.191Y167.149
X413.050Y167.086
X412.906Y167.031
X412.762Y166.985
X412.618Y166.946
X412.474Y166.915
X412.330Y166.891
X412.188Y166.874
X412.048Y166.864
X411.910Y166.861
X417.910
X418.048Y166.858
X418.188Y166.848
X418.330Y166.831
X418.474Y166.808
X418.618Y166.776
X418.762Y166.737
X418.906Y166.691
X419.050Y166.636
X419.191Y166.573
X419.331Y166.503
X419.468Y166.425
X419.601Y166.339
X419.730Y166.246
X419.854Y166.145
X419.974Y166.038
X420.087Y165.925
X420.194Y165.806
X420.294Y165.681
X420.388Y165.552
X420.473Y165.419
X420.552Y165.282
X420.622Y165.143
X420.685Y165.001
X420.739Y164.858
X420.786Y164.714
X420.825Y164.569
X420.856Y164.425
X420.880Y164.282
X420.897Y164.139
X420.906Y163.999
X420.910Y163.861
Y196.861
X420.913Y197.005
X420.924Y197.150
X420.941Y197.295
X420.966Y197.441
X420.998Y197.585
X421.038Y197.728
X421.084Y197.870
X421.138Y198.009
X421.199Y198.145
X421.266Y198.278
X421.339Y198.408
X421.418Y198.533
X421.504Y198.653
X421.594Y198.768
X421.689Y198.878
X421.788Y198.982
X423.788Y200.982
X423.893Y201.082
X424.003Y201.177
X424.118Y201.267
X424.238Y201.352
X424.363Y201.432
X424.492Y201.505
X424.625Y201.572
X424.762Y201.633
X424.901Y201.686
X425.042Y201.733
X425.186Y201.772
X425.330Y201.805
X425.475Y201.829
X425.621Y201.847
X425.766Y201.858
X425.910Y201.861
X426.198Y201.858
X426.489Y201.848
X426.782Y201.832
X427.078Y201.808
X427.375Y201.778
X427.674Y201.741
X427.974Y201.696
X428.275Y201.644
X428.577Y201.584
X428.880Y201.517
X429.183Y201.442
X429.487Y201.359
X429.790Y201.268
X430.092Y201.170
X430.394Y201.063
X430.695Y200.948
X430.994Y200.825
X431.292Y200.695
X431.587Y200.556
X431.881Y200.409
X432.171Y200.254
X432.459Y200.091
X432.743Y199.920
X433.023Y199.742
X433.300Y199.556
X433.573Y199.362
X433.840Y199.162
X434.104Y198.954
X434.362Y198.739
X434.614Y198.517
X434.861Y198.288
X435.102Y198.053
X435.337Y197.812
X435.565Y197.565
X435.787Y197.313
X436.002Y197.055
X436.210Y196.792
X436.411Y196.524
X436.605Y196.251
X436.791Y195.975
X436.969Y195.694
X437.140Y195.410
X437.302Y195.122
X437.457Y194.832
X437.604Y194.539
X437.743Y194.243
X437.874Y193.946
X437.997Y193.646
X438.112Y193.346
X438.218Y193.044
X438.317Y192.741
X438.408Y192.438
X438.491Y192.135
X438.566Y191.832
X438.633Y191.529
X438.693Y191.227
X438.745Y190.925
X438.789Y190.625
X438.827Y190.326
X438.857Y190.029
X438.880Y189.734
X438.897Y189.441
X438.906Y189.150
X438.910Y188.861
Y180.013
Z-10.000
Y162.013
G1Z-12.500F400.0
G1Y129.861F1200.0
X438.906Y129.717
X438.896Y129.572
X438.878Y129.427
X438.853Y129.281
X438.821Y129.137
X438.782Y128.994
X438.735Y128.852
X438.681Y128.713
X438.621Y128.577
X438.554Y128.444
X438.480Y128.314
X438.401Y128.190
X438.316Y128.069
X438.226Y127.954
X438.130Y127.844
X438.031Y127.740
X437.031Y126.740
X436.927Y126.640
X436.817Y126.545
X436.701Y126.455
X436.581Y126.370
X436.456Y126.290
X436.327Y126.217
X436.194Y126.150
X436.058Y126.089
X435.919Y126.036
X435.777Y125.989
X435.634Y125.950
X435.489Y125.918
X435.344Y125.893
X435.199Y125.875
X435.054Y125.864
X434.910Y125.861
X318.146
Z-10.000
X300.146
G1Z-12.500F400.0
G1X162.910F1200.0
X162.766Y125.864
X162.621Y125.875
X162.475Y125.893
X162.330Y125.918
X162.186Y125.950
X162.042Y125.989
X161.901Y126.036
X161.762Y126.089
X161.625Y126.150
X161.492Y126.217
X161.363Y126.290
X161.238Y126.370
X161.118Y126.455
X161.003Y126.545
X160.893Y126.640
X160.788Y126.740
X159.788Y127.740
X159.689Y127.844
X159.594Y127.954
X159.504Y128.069
X159.418Y128.190
X159.339Y128.314
X159.266Y128.444
X159.199Y128.577
X159.138Y128.713
X159.084Y128.852
X159.038Y128.994
X158.998Y129.137
X158.966Y129.281
X158.941Y129.427
X158.924Y129.572
X158.913Y129.717
X158.910Y129.861
Y132.422
Z-10.000
Y150.422
G1Z-12.500F400.0
G1Y151.861F1200.0
X158.913Y152.150
X158.923Y152.441
X158.939Y152.734
X158.962Y153.029
X158.993Y153.326
X159.030Y153.625
X159.075Y153.925
X159.127Y154.227
X159.186Y154.529
X159.254Y154.832
X159.329Y155.135
X159.411Y155.438
X159.502Y155.741
X159.601Y156.044
X159.708Y156.346
X159.822Y156.646
X159.945Y156.946
X160.076Y157.243
X160.215Y157.539
X160.362Y157.832
X160.517Y158.122
X160.680Y158.410
X160.850Y158.694
X161.029Y158.975
X161.215Y159.251
X161.408Y159.524
X161.609Y159.792
X161.817Y160.055
X162.032Y160.313
X162.254Y160.565
X162.482Y160.812
X162.717Y161.053
X162.958Y161.288
X163.205Y161.517
X163.458Y161.739
X163.716Y161.954
X163.979Y162.162
X164.247Y162.362
X164.519Y162.556
X164.796Y162.742
X165.077Y162.920
X165.361Y163.091
X165.648Y163.254
X165.939Y163.409
X166.232Y163.556
X166.528Y163.695
X166.825Y163.825
X167.124Y163.948
X167.425Y164.063
X167.727Y164.170
X168.030Y164.268
X168.333Y164.359
X168.636Y164.442
X168.939Y164.517
X169.242Y164.584
X169.544Y164.644
X169.845Y164.696
X170.146Y164.741
X170.444Y164.778
X170.742Y164.808
X171.037Y164.832
X171.330Y164.848
X171.621Y164.858
X171.910Y164.861
X305.910
X306.048Y164.864
X306.188Y164.874
X306.330Y164.891
X306.474Y164.915
X306.618Y164.946
X306.762Y164.985
X306.906Y165.031
X307.050Y165.086
X307.191Y165.149
X307.331Y165.219
X307.468Y165.297
X307.601Y165.383
X307.730Y165.476
X307.854Y165.577
X307.974Y165.684
X308.087Y165.797
X308.194Y165.916
X308.294Y166.041
X308.388Y166.170
X308.473Y166.303
X308.552Y166.440
X308.622Y166.579
X308.685Y166.721
X308.739Y166.864
X308.786Y167.008
X308.825Y167.153
X308.856Y167.297
X308.880Y167.441
X308.897Y167.583
X308.906Y167.723
X308.910Y167.861
Y180.861
X308.906Y180.999
X308.897Y181.139
X308.880Y181.282
X308.856Y181.425
X308.825Y181.569
X308.786Y181.714
X308.739Y181.858
X308.685Y182.001
X308.622Y182.143
X308.552Y182.282
X308.473Y182.419
X308.388Y182.552
X308.294Y182.681
X308.194Y182.806
X308.087Y182.925
X307.974Y183.038
X307.854Y183.145
X307.730Y183.246
X307.601Y183.339
X307.468Y183.425
X307.331Y183.503
X307.191Y183.573
X307.050Y183.636
X306.906Y183.691
X306.762Y183.737
X306.618Y183.776
X306.474Y183.808
X306.330Y183.831
X306.188Y183.848
X306.048Y183.858
X305.910Y183.861
X163.910
X163.766Y183.865
X163.621Y183.875
X163.475Y183.893
X163.330Y183.918
X163.186Y183.950
X163.042Y183.989
X162.901Y184.036
X162.762Y184.089
X162.625Y184.150
X162.492Y184.217
X162.363Y184.290
X162.238Y184.370
X162.118Y184.455
X162.003Y184.545
X161.893Y184.640
X161.788Y184.740
X159.788Y186.740
X159.689Y186.844
X159.594Y186.954
X159.504Y187.069
X159.418Y187.190
X159.339Y187.314
X159.266Y187.444
X159.199Y187.577
X159.138Y187.713
X159.084Y187.852
X159.038Y187.994
X158.998Y188.137
X158.966Y188.281
X158.941Y188.427
X158.924Y188.572
X158.913Y188.717
X158.910Y188.861
Y197.861
X158.913Y198.005
X158.924Y198.150
X158.941Y198.295
X158.966Y198.441
X158.998Y198.585
X159.038Y198.728
X159.084Y198.870
X159.138Y199.009
X159.199Y199.145
X159.266Y199.278
X159.339Y199.408
X159.418Y199.533
X159.504Y199.653
X159.594Y199.768
X159.689Y199.878
X159.788Y199.982
X160.788Y200.982
X160.893Y201.082
X161.003Y201.177
X161.118Y201.267
X161.238Y201.352
X161.363Y201.432
X161.492Y201.505
X161.625Y201.572
X161.762Y201.633
X161.901Y201.686
X162.042Y201.733
X162.186Y201.772
X162.330Y201.805
X162.475Y201.829
X162.621Y201.847
X162.766Y201.858
X162.910Y201.861
X169.283
X173.888
Z-10.000
X181.783
G0Z5.080
G0X460.691Y198.453
G1Z0.000F400.0
G1Y210.953Z-6.250
G1Y223.453F1200.0
Y272.453
X460.695Y272.597
X460.705Y272.742
X460.723Y272.887
X460.748Y273.032
X460.780Y273.177
X460.820Y273.320
X460.866Y273.462
X460.920Y273.601
X460.980Y273.737
X461.047Y273.870
X461.121Y273.999
X461.200Y274.124
X461.285Y274.245
X461.376Y274.360
X461.471Y274.470
X461.570Y274.574
X462.570Y275.574
X462.675Y275.674
X462.784Y275.769
X462.900Y275.859
X463.020Y275.944
X463.145Y276.023
X463.274Y276.097
X463.407Y276.164
X463.543Y276.224
X463.683Y276.278
X463.824Y276.325
X463.967Y276.364
X464.112Y276.396
X464.257Y276.421
X464.402Y276.439
X464.547Y276.449
X464.691Y276.453
X524.534
X542.534
X732.601
X750.601
X813.692
X813.830Y276.450
X813.970Y276.440
X814.112Y276.423
X814.255Y276.399
X814.400Y276.368
X814.544Y276.329
X814.688Y276.282
X814.831Y276.228
X814.973Y276.165
X815.113Y276.095
X815.249Y276.017
X815.383Y275.931
X815.512Y275.837
X815.636Y275.737
X815.755Y275.630
X815.869Y275.517
X815.976Y275.397
X816.076Y275.273
X816.169Y275.144
X816.255Y275.011
X816.333Y274.874
X816.404Y274.734
X816.466Y274.593
X816.521Y274.449
X816.568Y274.305
X816.607Y274.161
X816.638Y274.017
X816.662Y273.873
X816.679Y273.731
X816.688Y273.591
X816.692Y273.453
Y198.453
X816.688Y198.309
X816.678Y198.164
X816.660Y198.018
X816.635Y197.873
X816.603Y197.729
X816.563Y197.585
X816.517Y197.444
X816.463Y197.305
X816.403Y197.168
X816.336Y197.035
X816.262Y196.906
X816.183Y196.781
X816.098Y196.661
X816.007Y196.546
X815.912Y196.436
X815.813Y196.331
X814.813Y195.331
X814.708Y195.232
X814.599Y195.137
X814.483Y195.047
X814.363Y194.962
X814.238Y194.882
X814.109Y194.809
X813.976Y194.742
X813.840Y194.681
X813.700Y194.628
X813.559Y194.581
X813.416Y194.541
X813.271Y194.509
X813.126Y194.484
X812.981Y194.467
X812.836Y194.456
X812.692Y194.453
X804.692
Y150.453
X812.692
X812.836Y150.449
X812.981Y150.439
X813.126Y150.421
X813.271Y150.396
X813.416Y150.364
X813.559Y150.325
X813.700Y150.278
X813.840Y150.224
X813.976Y150.164
X814.109Y150.097
X814.238Y150.023
X814.363Y149.944
X814.483Y149.859
X814.599Y149.769
X814.708Y149.674
X814.813Y149.574
X815.813Y148.574
X815.912Y148.470
X816.007Y148.360
X816.098Y148.245
X816.183Y148.124
X816.262Y147.999
X816.336Y147.870
X816.403Y147.737
X816.463Y147.601
X816.517Y147.462
X816.563Y147.320
X816.603Y147.177
X816.635Y147.032
X816.660Y146.887
X816.678Y146.742
X816.688Y146.597
X816.692Y146.453
Y123.512
Y105.512
Y24.453
X816.688Y24.309
X816.678Y24.164
X816.660Y24.018
X816.635Y23.873
X816.603Y23.729
X816.563Y23.585
X816.517Y23.444
X816.463Y23.305
X816.403Y23.168
X816.336Y23.035
X816.262Y22.906
X816.183Y22.781
X816.098Y22.661
X816.007Y22.546
X815.912Y22.436
X815.813Y22.331
X814.813Y21.331
X814.708Y21.232
X814.599Y21.137
X814.483Y21.047
X814.363Y20.962
X814.238Y20.882
X814.109Y20.809
X813.976Y20.742
X813.840Y20.681
X813.700Y20.627
X813.559Y20.581
X813.416Y20.541
X813.271Y20.509
X813.126Y20.484
X812.981Y20.467
X812.836Y20.456
X812.692Y20.453
X766.013
X748.013
X525.195
X507.195
X464.691
X464.547Y20.456
X464.402Y20.467
X464.257Y20.484
X464.112Y20.509
X463.967Y20.541
X463.824Y20.581
X463.683Y20.627
X463.543Y20.681
X463.407Y20.742
X463.274Y20.809
X463.145Y20.882
X463.020Y20.962
X462.900Y21.047
X462.784Y21.137
X462.675Y21.232
X462.570Y21.331
X461.570Y22.331
X461.471Y22.436
X461.376Y22.546
X461.285Y22.661
X461.200Y22.781
X461.121Y22.906
X461.047Y23.035
X460.980Y23.168
X460.920Y23.305
X460.866Y23.444
X460.820Y23.585
X460.780Y23.729
X460.748Y23.873
X460.723Y24.018
X460.705Y24.164
X460.695Y24.309
X460.691Y24.453
Y99.732
Y117.732
Y146.453
X460.695Y146.597
X460.705Y146.742
X460.723Y146.887
X460.748Y147.032
X460.780Y147.177
X460.820Y147.320
X460.866Y147.462
X460.920Y147.601
X460.980Y147.737
X461.047Y147.870
X461.121Y147.999
X461.200Y148.124
X461.285Y148.245
X461.376Y148.360
X461.471Y148.470
X461.570Y148.574
X462.570Y149.574
X462.675Y149.674
X462.784Y149.769
X462.900Y149.859
X463.020Y149.944
X463.145Y150.023
X463.274Y150.097
X463.407Y150.164
X463.543Y150.224
X463.683Y150.278
X463.824Y150.325
X463.967Y150.364
X464.112Y150.396
X464.257Y150.421
X464.402Y150.439
X464.547Y150.449
X464.691Y150.453
X472.691
Y194.453
X464.691
X464.547Y194.456
X464.402Y194.467
X464.257Y194.484
X464.112Y194.509
X463.967Y194.541
X463.824Y194.581
X463.683Y194.628
X463.543Y194.681
X463.407Y194.742
X463.274Y194.809
X463.145Y194.882
X463.020Y194.962
X462.900Y195.047
X462.784Y195.137
X462.675Y195.232
X462.570Y195.331
X461.570Y196.331
X461.471Y196.436
X461.376Y196.546
X461.285Y196.661
X461.200Y196.781
X461.121Y196.906
X461.047Y197.035
X460.980Y197.168
X460.920Y197.305
X460.866Y197.444
X460.820Y197.585
X460.780Y197.729
X460.748Y197.873
X460.723Y198.018
X460.705Y198.164
X460.695Y198.309
X460.691Y198.453
Y210.953
G1Y223.453Z-12.500F400.0
G1Y272.453F1200.0
X460.695Y272.597
X460.705Y272.742
X460.723Y272.887
X460.748Y273.032
X460.780Y273.177
X460.820Y273.320
X460.866Y273.462
X460.920Y273.601
X460.980Y273.737
X461.047Y273.870
X461.121Y273.999
X461.200Y274.124
X461.285Y274.245
X461.376Y274.360
X461.471Y274.470
X461.570Y274.574
X462.570Y275.574
X462.675Y275.674
X462.784Y275.769
X462.900Y275.859
X463.020Y275.944
X463.145Y276.023
X463.274Y276.097
X463.407Y276.164
X463.543Y276.224
X463.683Y276.278
X463.824Y276.325
X463.967Y276.364
X464.112Y276.396
X464.257Y276.421
X464.402Y276.439
X464.547Y276.449
X464.691Y276.453
X524.534
Z-10.000
X542.534
G1Z-12.500F400.0
G1X732.601F1200.0
Z-10.000
X750.601
G1Z-12.500F400.0
G1X813.692F1200.0
X813.830Y276.450
X813.970Y276.440
X814.112Y276.423
X814.255Y276.399
X814.400Y276.368
X814.544Y276.329
X814.688Y276.282
X814.831Y276.228
X814.973Y276.165
X815.113Y276.095
X815.249Y276.017
X815.383Y275.931
X815.512Y275.837
X815.636Y275.737
X815.755Y275.630
X815.869Y275.517
X815.976Y275.397
X816.076Y275.273
X816.169Y275.144
X816.255Y275.011
X816.333Y274.874
X816.404Y274.734
X816.466Y274.593
X816.521Y274.449
X816.568Y274.305
X816.607Y274.161
X816.638Y274.017
X816.662Y273.873
X816.679Y273.731
X816.688Y273.591
X816.692Y273.453
Y198.453
X816.688Y198.309
X816.678Y198.164
X816.660Y198.018
X816.635Y197.873
X816.603Y197.729
X816.563Y197.585
X816.517Y197.444
X816.463Y197.305
X816.403Y197.168
X816.336Y197.035
X816.262Y196.906
X816.183Y196.781
X816.098Y196.661
X816.007Y196.546
X815.912Y196.436
X815.813Y196.331
X814.813Y195.331
X814.708Y195.232
X814.599Y195.137
X814.483Y195.047
X814.363Y194.962
X814.238Y194.882
X814.109Y194.809
X813.976Y194.742
X813.840Y194.681
X813.700Y194.628
X813.559Y194.581
X813.416Y194.541
X813.271Y194.509
X813.126Y194.484
X812.981Y194.467
X812.836Y194.456
X812.692Y194.453
X804.692
Y150.453
X812.692
X812.836Y150.449
X812.981Y150.439
X813.126Y150.421
X813.271Y150.396
X813.416Y150.364
X813.559Y150.325
X813.700Y150.278
X813.840Y150.224
X813.976Y150.164
X814.109Y150.097
X814.238Y150.023
X814.363Y149.944
X814.483Y149.859
X814.599Y149.769
X814.708Y149.674
X814.813Y149.574
X815.813Y148.574
X815.912Y148.470
X816.007Y148.360
X816.098Y148.245
X816.183Y148.124
X816.262Y147.999
X816.336Y147.870
X816.403Y147.737
X816.463Y147.601
X816.517Y147.462
X816.563Y147.320
X816.603Y147.177
X816.635Y147.032
X816.660Y146.887
X816.678Y146.742
X816.688Y146.597
X816.692Y146.453
Y123.512
Z-10.000
Y105.512
G1Z-12.500F400.0
G1Y24.453F1200.0
X816.688Y24.309
X816.678Y24.164
X816.660Y24.018
X816.635Y23.873
X816.603Y23.729
X816.563Y23.585
X816.517Y23.444
X816.463Y23.305
X816.403Y23.168
X816.336Y23.035
X816.262Y22.906
X816.183Y22.781
X816.098Y22.661
X816.007Y22.546
X815.912Y22.436
X815.813Y22.331
X814.813Y21.331
X814.708Y21.232
X814.599Y21.137
X814.483Y21.047
X814.363Y20.962
X814.238Y20.882
X814.109Y20.809
X813.976Y20.742
X813.840Y20.681
X813.700Y20.627
X813.559Y20.581
X813.416Y20.541
X813.271Y20.509
X813.126Y20.484
X812.981Y20.467
X812.836Y20.456
X812.692Y20.453
X766.013
Z-10.000
X748.013
G1Z-12.500F400.0
G1X525.195F1200.0
Z-10.000
X507.195
G1Z-12.500F400.0
G1X464.691F1200.0
X464.547Y20.456
X464.402Y20.467
X464.257Y20.484
X464.112Y20.509
X463.967Y20.541
X463.824Y20.581
X463.683Y20.627
X463.543Y20.681
X463.407Y20.742
X463.274Y20.809
X463.145Y20.882
X463.020Y20.962
X462.900Y21.047
X462.784Y21.137
X462.675Y21.232
X462.570Y21.331
X461.570Y22.331
X461.471Y22.436
X461.376Y22.546
X461.285Y22.661
X461.200Y22.781
X461.121Y22.906
X461.047Y23.035
X460.980Y23.168
X460.920Y23.305
X460.866Y23.444
X460.820Y23.585
X460.780Y23.729
X460.748Y23.873
X460.723Y24.018
X460.705Y24.164
X460.695Y24.309
X460.691Y24.453
Y99.732
Z-10.000
Y117.732
G1Z-12.500F400.0
G1Y146.453F1200.0
X460.695Y146.597
X460.705Y146.742
X460.723Y146.887
X460.748Y147.032
X460.780Y147.177
X460.820Y147.320
X460.866Y147.462
X460.920Y147.601
X460.980Y147.737
X461.047Y147.870
X461.121Y147.999
X461.200Y148.124
X461.285Y148.245
X461.376Y148.360
X461.471Y148.470
X461.570Y148.574
X462.570Y149.574
X462.675Y149.674
X462.784Y149.769
X462.900Y149.859
X463.020Y149.944
X463.145Y150.023
X463.274Y150.097
X463.407Y150.164
X463.543Y150.224
X463.683Y150.278
X463.824Y150.325
X463.967Y150.364
X464.112Y150.396
X464.257Y150.421
X464.402Y150.439
X464.547Y150.449
X464.691Y150.453
X472.691
Y194.453
X464.691
X464.547Y194.456
X464.402Y194.467
X464.257Y194.484
X464.112Y194.509
X463.967Y194.541
X463.824Y194.581
X463.683Y194.628
X463.543Y194.681
X463.407Y194.742
X463.274Y194.809
X463.145Y194.882
X463.020Y194.962
X462.900Y195.047
X462.784Y195.137
X462.675Y195.232
X462.570Y195.331
X461.570Y196.331
X461.471Y196.436
X461.376Y196.546
X461.285Y196.661
X461.200Y196.781
X461.121Y196.906
X461.047Y197.035
X460.980Y197.168
X460.920Y197.305
X460.866Y197.444
X460.820Y197.585
X460.780Y197.729
X460.748Y197.873
X460.723Y198.018
X460.705Y198.164
X460.695Y198.309
X460.691Y198.453
Y210.953
Y223.453
G0Z5.080
G0Z20.320
G0X0.000Y0.000
M30
